; generated by PrusaSlicer 2.7.4+MacOS-arm64 on 2024-12-30 at 17:19:36 UTC


;
;
; 

; external perimeters extrusion width = 0.45mm
; perimeters extrusion width = 0.45mm
; infill extrusion width = 0.45mm
; solid infill extrusion width = 0.45mm
; top infill extrusion width = 0.40mm
; first layer extrusion width = 0.42mm

; external perimeters extrusion width = 0.45mm
; perimeters extrusion width = 0.45mm
; infill extrusion width = 0.45mm
; solid infill extrusion width = 0.45mm
; top infill extrusion width = 0.40mm
; first layer extrusion width = 0.42mm

M73 P0 R10
M73 Q0 S10
M201 X1000 Y1000 Z200 E5000 ; sets maximum accelerations, mm/sec^2
M203 X200 Y200 Z12 E120 ; sets maximum feedrates, mm / sec
M204 S1250 T1250 ; sets acceleration (S) and retract acceleration (R), mm/sec^2
M205 X8.00 Y8.00 Z0.40 E4.50 ; sets the jerk limits, mm/sec
M205 S0 T0 ; sets the minimum extruding and travel feed rate, mm/sec

; printing object Anschluss-Element-Fixierung v11.stl id:1 copy 0
; stop printing object Anschluss-Element-Fixierung v11.stl id:1 copy 0
; printing object Anschluss-Element-Corpus v11.stl id:0 copy 0
; stop printing object Anschluss-Element-Corpus v11.stl id:0 copy 0

;TYPE:Custom
M862.3 P "MK3S" ; printer model check
M862.1 P0.4 ; nozzle diameter check
M115 U3.13.3 ; tell printer latest fw version
G90 ; use absolute coordinates
M83 ; extruder relative mode
M104 S215 ; set extruder temp
M140 S60 ; set bed temp
M190 S60 ; wait for bed temp
M109 S215 ; wait for extruder temp
G28 W ; home all without mesh bed level
G80 X114.909 Y92.2832 W69.7252 H26.1324 ; mesh bed levelling

G1 Z0.2 F720
G1 Y-3 F1000 ; go outside print area
G92 E0
G1 X60 E9 F1000 ; intro line
G1 X100 E12.5 F1000 ; intro line

G92 E0
M221 S95

; Don't change E values below. Excessive value can damage the printer.

M907 E538 ; set extruder motor current
G21 ; set units to millimeters
G90 ; use absolute coordinates
M83 ; use relative distances for extrusion

M900 K0.05 ; Filament gcode LA 1.5
M900 K30 ; Filament gcode LA 1.0




M107
;LAYER_CHANGE
;Z:0.2
;HEIGHT:0.2
G1 E-.8 F2100
G1 Z.6 F10800
G1 X115.49 Y93.968
G1 Z.2
M73 P1 R10
M73 Q1 S10
G1 E.8 F2100
M204 S1000
;TYPE:Skirt/Brim
;WIDTH:0.42
G1 F1200
G1 X116.535 Y93.092 E.04275
G1 X117.34 Y92.902 E.02593
G1 X125.077 Y92.472 E.24296
G1 X177.821 Y94.174 E1.65461
G1 X179.239 Y94.702 E.04744
G1 X183.564 Y98.202 E.17445
G1 X184.334 Y99.329 E.0428
G1 X184.446 Y100.05 E.02288
G1 X184.446 Y112.3 E.38409
G1 X184.054 Y113.607 E.04278
G1 X183.577 Y114.137 E.02236
G1 X179.252 Y117.687 E.17544
G1 X177.744 Y118.227 E.05022
G1 X173.91 Y118.227 E.12021
G1 X124.865 Y117.526 E1.53793
G1 X117.34 Y117.098 E.23632
M73 P2 R10
M73 Q2 S10
G1 X116.057 Y116.633 E.04279
G1 X115.242 Y115.539 E.04277
G1 X115.098 Y114.725 E.02592
G1 X115.098 Y95.275 E.60984
G1 X115.472 Y94.025 E.04091
;WIPE_START
G1 F8640
G1 X115.49 Y93.968 E-.0138
G1 X116.535 Y93.092 E-.31486
G1 X117.34 Y92.902 E-.19098
G1 X118.552 Y92.835 E-.28036
;WIPE_END
G1 Z.6 F10800
; printing object Anschluss-Element-Corpus v11.stl id:0 copy 0
G1 X118.262 Y96.061
G1 Z.2
G1 E.8 F2100
;TYPE:Perimeter
;WIDTH:0.419999
G1 F1200
G1 X122.606 Y96.049 E.1362
G1 X123.005 Y96.006 E.01258
G1 X123.442 Y95.914 E.014
G1 X123.33 Y96.158 E.00842
G1 X123.382 Y96.735 E.01816
G1 X123.49 Y97.019 E.00953
G1 X123.792 Y97.43 E.01599
G1 X124.092 Y97.675 E.01214
G1 X124.481 Y97.852 E.0134
G1 X125.048 Y97.934 E.01796
G1 X125.465 Y97.862 E.01327
G1 X125.966 Y97.639 E.01719
G1 X126.321 Y97.306 E.01526
G1 X126.502 Y97.044 E.00998
G1 X126.604 Y96.708 E.01101
G1 X126.663 Y96.179 E.01669
G1 X126.565 Y95.939 E.00813
G1 X127.384 Y96.05 E.02591
G1 X131.738 Y96.061 E.13652
G1 X131.738 Y98.384 E.07284
G1 X131.738 Y113.939 E.48772
G1 X128.251 Y113.948 E.10933
G1 X127.118 Y113.979 E.03554
G1 X126.535 Y114.092 E.01862
G1 X126.663 Y113.821 E.0094
G1 X126.629 Y113.44 E.01199
G1 X126.509 Y112.967 E.0153
G1 X126.228 Y112.616 E.0141
G1 X125.968 Y112.368 E.01127
G1 X125.615 Y112.18 E.01254
G1 X124.965 Y112.075 E.02064
G1 X124.762 Y112.087 E.00638
G1 X124.226 Y112.254 E.0176
G1 X123.793 Y112.568 E.01677
G1 X123.468 Y113.012 E.01725
G1 X123.366 Y113.413 E.01297
G1 X123.343 Y113.926 E.0161
G1 X123.451 Y114.089 E.00613
G1 X123.153 Y114.012 E.00965
G1 X122.616 Y113.951 E.01695
G1 X118.262 Y113.939 E.13652
G1 X118.262 Y96.121 E.55867
;WIPE_START
G1 F8640
M73 P3 R10
M73 Q3 S10
G1 X118.262 Y96.061 E-.01385
G1 X121.667 Y96.052 E-.78615
;WIPE_END
G1 Z.6 F10800
G1 X124.113 Y95.458
G1 Z.2
G1 E.8 F2100
;TYPE:External perimeter
;WIDTH:0.417142
G1 F1200
G1 X123.964 Y95.681 E.00835
;WIDTH:0.419999
G1 X123.827 Y96.029 E.01173
G1 X123.772 Y96.06 E.00198
G1 X123.706 Y96.224 E.00554
G1 X123.794 Y96.796 E.01815
G1 X124.096 Y97.207 E.01599
G1 X124.306 Y97.365 E.00824
G1 X124.628 Y97.505 E.01101
G1 X125.018 Y97.556 E.01233
G1 X125.266 Y97.53 E.00782
G1 X125.755 Y97.324 E.01664
G1 X126.052 Y97.041 E.01286
G1 X126.211 Y96.772 E.0098
G1 X126.291 Y96.238 E.01693
G1 X126.183 Y96.053 E.00672
;WIDTH:0.421551
G1 X126.026 Y95.658 E.01338
;WIDTH:0.429044
G1 X125.86 Y95.449 E.00857
G1 X125.978 Y95.488 E.00399
;WIDTH:0.425863
G1 X126.383 Y95.485 E.0129
;WIDTH:0.419999
G1 X126.865 Y95.608 E.0156
G1 X127.385 Y95.673 E.01643
G1 X132.115 Y95.684 E.14831
G1 X132.115 Y98.384 E.08466
G1 X132.115 Y114.316 E.49954
G1 X127.513 Y114.327 E.14429
G1 X126.893 Y114.386 E.01953
G1 X126.462 Y114.504 E.01401
G1 X126.137 Y114.515 E.0102
G1 X125.872 Y114.562 E.00844
G1 X126.023 Y114.347 E.00824
G1 X126.244 Y113.859 E.0168
G1 X126.29 Y113.701 E.00516
G1 X126.171 Y113.14 E.01798
G1 X125.848 Y112.747 E.01595
G1 X125.455 Y112.522 E.0142
G1 X124.921 Y112.449 E.0169
G1 X124.493 Y112.543 E.01374
G1 X124.164 Y112.735 E.01194
G1 X123.939 Y113.006 E.01104
G1 X123.757 Y113.305 E.01098
G1 X123.71 Y113.839 E.01681
G1 X123.834 Y113.975 E.00577
G1 X124.139 Y114.566 E.02085
;WIDTH:0.406099
G1 X124.089 Y114.535 E.00178
;WIDTH:0.419999
G1 X123.617 Y114.515 E.01481
G1 X123.135 Y114.392 E.0156
G1 X122.615 Y114.328 E.01643
G1 X117.885 Y114.316 E.14831
G1 X117.885 Y95.684 E.58419
G1 X122.605 Y95.672 E.14799
G1 X122.959 Y95.632 E.01117
G1 X123.576 Y95.485 E.01989
G1 X124.053 Y95.461 E.01497
G1 X124.053 Y95.461 F10800
G1 X124.134 Y95.439
;WIDTH:0.404492
G1 F1200
G1 X124.542 Y95.147 E.01508
;WIDTH:0.39629
G1 X125.044 Y95.051 E.01502
G1 X125.392 Y95.127 E.01047
;WIDTH:0.397936
G1 X125.685 Y95.281 E.00977
;WIDTH:0.429044
G1 X125.86 Y95.449 E.00779
;WIPE_START
G1 F8640
G1 X125.685 Y95.281 E-.05601
G1 X125.392 Y95.127 E-.07643
G1 X125.044 Y95.051 E-.08225
G1 X124.542 Y95.147 E-.11801
G1 X124.134 Y95.439 E-.11585
;WIPE_END
G1 E-.35145 F2100
G1 Z.6 F10800
G1 X126.537 Y99.597
G1 Z.2
G1 E.8 F2100
;TYPE:Perimeter
;WIDTH:0.419999
G1 F1200
G1 X127.365 Y99.886 E.0275
G1 X128.397 Y100.505 E.03773
G1 X129.127 Y101.164 E.03084
G1 X129.79 Y102.033 E.03427
G1 X130.273 Y103.014 E.03428
G1 X130.557 Y104.07 E.03429
G1 X130.632 Y105.16 E.03426
G1 X130.495 Y106.245 E.03429
G1 X130.151 Y107.282 E.03426
G1 X129.614 Y108.234 E.03427
G1 X128.902 Y109.064 E.03429
G1 X128.044 Y109.741 E.03427
G1 X127.339 Y110.106 E.02489
G1 X126.834 Y110.316 E.01715
G1 X126.02 Y110.541 E.02648
G1 X124.931 Y110.634 E.03427
G1 X123.737 Y110.491 E.0377
G1 X122.746 Y110.166 E.0327
G1 X121.841 Y109.665 E.03243
G1 X121 Y108.967 E.03427
G1 X120.309 Y108.12 E.03427
G1 X119.795 Y107.156 E.03425
G1 X119.476 Y106.11 E.03429
G1 X119.366 Y105.022 E.03429
M73 Q4 S10
G1 X119.468 Y103.934 E.03426
G1 X119.778 Y102.886 E.03427
G1 X120.284 Y101.917 E.03428
M73 P4 R10
G1 X120.968 Y101.064 E.03428
G1 X121.804 Y100.36 E.03427
G1 X122.725 Y99.849 E.03302
G1 X123.425 Y99.588 E.02342
G1 X124.52 Y99.386 E.03491
G1 X125.07 Y99.371 E.01725
G1 X125.671 Y99.427 E.01893
G1 X126.332 Y99.526 E.02096
G1 X126.481 Y99.578 E.00495
;WIPE_START
G1 F8640
G1 X126.537 Y99.597 E-.01365
G1 X127.365 Y99.886 E-.2025
G1 X128.397 Y100.505 E-.27787
G1 X129.127 Y101.164 E-.22708
G1 X129.334 Y101.436 E-.0789
;WIPE_END
G1 Z.6 F10800
G1 X127.238 Y100.241
G1 Z.2
G1 E.8 F2100
;TYPE:External perimeter
G1 F1200
G1 X128.017 Y100.705 E.02843
G1 X128.874 Y101.444 E.03548
G1 X129.488 Y102.259 E.03199
G1 X129.933 Y103.177 E.03199
G1 X130.192 Y104.164 E.03199
G1 X130.255 Y105.182 E.03198
G1 X130.121 Y106.194 E.03201
G1 X129.794 Y107.16 E.03198
G1 X129.287 Y108.045 E.03198
G1 X128.618 Y108.816 E.03201
G1 X127.813 Y109.443 E.03199
G1 X127.17 Y109.769 E.0226
G1 X126.733 Y109.953 E.01487
G1 X125.92 Y110.178 E.02645
G1 X124.968 Y110.253 E.02994
G1 X123.838 Y110.127 E.03565
G1 X122.899 Y109.822 E.03096
G1 X122.024 Y109.336 E.03138
G1 X121.243 Y108.68 E.03198
G1 X120.603 Y107.885 E.032
G1 X120.129 Y106.982 E.03198
G1 X119.838 Y106.004 E.03199
G1 X119.741 Y104.988 E.032
G1 X119.843 Y103.973 E.03198
G1 X120.138 Y102.996 E.032
G1 X120.617 Y102.095 E.03199
G1 X121.26 Y101.303 E.03199
G1 X122.044 Y100.651 E.03197
G1 X122.905 Y100.181 E.03076
G1 X123.55 Y99.944 E.02155
G1 X124.586 Y99.758 E.033
G1 X125.219 Y99.746 E.01985
G1 X126.091 Y99.871 E.02762
G1 X126.421 Y99.947 E.01062
G1 X127.181 Y100.221 E.02533
;WIPE_START
G1 F8640
G1 X127.238 Y100.241 E-.01395
G1 X128.017 Y100.705 E-.20936
G1 X128.874 Y101.444 E-.26129
G1 X129.488 Y102.259 E-.23561
G1 X129.639 Y102.57 E-.07979
;WIPE_END
G1 Z.6 F10800
G1 X125.802 Y114.619
G1 Z.2
G1 E.8 F2100
;WIDTH:0.397348
G1 F1200
G1 X125.489 Y114.84 E.01129
G1 X125.171 Y114.933 E.00976
;WIDTH:0.395176
G1 X124.674 Y114.898 E.01459
;WIDTH:0.402462
G1 X124.367 Y114.759 E.01008
;WIDTH:0.403564
G1 X124.139 Y114.566 E.00896
;WIPE_START
G1 F8640
G1 X124.367 Y114.759 E-.06898
G1 X124.674 Y114.898 E-.07781
G1 X125.171 Y114.933 E-.11504
G1 X125.489 Y114.84 E-.0765
G1 X125.802 Y114.619 E-.08847
;WIPE_END
G1 E-.3732 F2100
G1 Z.6 F10800
G1 X131.625 Y96.937
G1 Z.2
G1 E.8 F2100
;TYPE:Solid infill
;WIDTH:0.420589
G1 F1200
G1 X131.029 Y96.342 E.02645
G1 X130.494 Y96.34 E.0168
G1 X131.455 Y97.301 E.04268
G1 X131.455 Y97.836 E.0168
G1 X129.959 Y96.339 E.06646
G1 X129.423 Y96.338 E.01683
G1 X131.455 Y98.37 E.09024
G1 X131.455 Y98.904 E.01677
G1 X128.888 Y96.336 E.11403
G1 X128.352 Y96.335 E.01683
G1 X131.455 Y99.438 E.13781
G1 X131.455 Y99.972 E.01677
G1 X127.817 Y96.334 E.16157
G1 X127.27 Y96.321 E.01718
G1 X131.455 Y100.506 E.18586
G1 X131.455 Y101.04 E.01677
G1 X126.924 Y96.509 E.20123
G1 X126.836 Y96.955 E.01428
G1 X131.455 Y101.574 E.20513
G1 X131.455 Y102.108 E.01677
G1 X126.659 Y97.312 E.213
G1 X126.528 Y97.499 E.00717
G1 X126.42 Y97.608 E.00482
G1 X131.455 Y102.642 E.22359
G1 X131.455 Y103.177 E.0168
M73 P5 R10
M73 Q5 S10
G1 X126.135 Y97.856 E.23629
G1 X126.025 Y97.926 E.00409
G1 X125.778 Y98.034 E.00847
G1 X127.314 Y99.569 E.06819
G1 X126.484 Y99.273 E.02767
G1 X125.387 Y98.177 E.0487
G1 X125.051 Y98.218 E.01063
G1 X124.877 Y98.201 E.00549
G1 X126.049 Y99.372 E.05203
;WIPE_START
G1 F8640
G1 X124.877 Y98.201 E-.38255
G1 X125.051 Y98.218 E-.04037
G1 X125.387 Y98.177 E-.07816
G1 X126.302 Y99.092 E-.29892
;WIPE_END
G1 Z.6 F10800
G1 X123.255 Y96.578
G1 Z.2
G1 E.8 F2100
G1 F1200
G1 X122.969 Y96.293 E.01268
G1 X122.475 Y96.333 E.01556
G1 X125.23 Y99.088 E.12235
G1 X124.708 Y99.1 E.0164
G1 X121.942 Y96.334 E.12284
G1 X121.409 Y96.335 E.01674
G1 X124.225 Y99.152 E.12508
G1 X123.772 Y99.232 E.01445
G1 X120.876 Y96.337 E.12859
G1 X120.344 Y96.338 E.01671
G1 X123.335 Y99.329 E.13283
G1 X122.936 Y99.464 E.01323
G1 X119.811 Y96.339 E.13878
G1 X119.278 Y96.341 E.01674
G1 X122.562 Y99.625 E.14585
G1 X122.214 Y99.811 E.01239
G1 X118.746 Y96.342 E.15404
G1 X118.545 Y96.343 E.00631
G1 X118.545 Y96.676 E.01046
G1 X121.866 Y99.997 E.14749
G1 X121.699 Y100.086 E.00594
G1 X121.546 Y100.211 E.0062
G1 X118.545 Y97.21 E.13328
G1 X118.545 Y97.744 E.01677
G1 X121.253 Y100.452 E.12026
G1 X120.959 Y100.692 E.01192
G1 X118.545 Y98.278 E.10721
G1 X118.545 Y98.812 E.01677
G1 X120.698 Y100.965 E.09562
G1 X120.455 Y101.256 E.01191
G1 X118.545 Y99.346 E.08482
G1 X118.545 Y99.88 E.01677
G1 X120.211 Y101.546 E.07399
G1 X120.121 Y101.653 E.00439
G1 X120.001 Y101.87 E.00779
G1 X118.545 Y100.414 E.06466
G1 X118.545 Y100.948 E.01677
G1 X119.811 Y102.215 E.05625
G1 X119.621 Y102.559 E.01234
G1 X118.545 Y101.483 E.04779
G1 X118.545 Y102.017 E.01677
G1 X119.474 Y102.946 E.04126
G1 X119.345 Y103.351 E.01335
G1 X118.545 Y102.551 E.03553
G1 X118.545 Y103.085 E.01677
G1 X119.216 Y103.756 E.0298
G1 X119.154 Y104.228 E.01495
G1 X118.545 Y103.619 E.02705
G1 X118.545 Y104.153 E.01677
G1 X119.106 Y104.714 E.02491
G1 X119.08 Y104.97 E.00808
G1 X119.106 Y105.248 E.00877
G1 X118.545 Y104.687 E.02491
G1 X118.545 Y105.221 E.01677
G1 X119.159 Y105.836 E.02729
G1 X119.183 Y106.098 E.00826
G1 X119.303 Y106.514 E.0136
G1 X118.545 Y105.755 E.03369
G1 X118.545 Y106.289 E.01677
G1 X119.958 Y107.702 E.06275
;WIPE_START
G1 F8640
G1 X118.545 Y106.289 E-.46141
G1 X118.545 Y105.755 E-.1233
G1 X119.204 Y106.414 E-.21529
;WIPE_END
G1 Z.6 F10800
G1 X130.045 Y102.301
G1 Z.2
M73 P6 R10
M73 Q6 S10
G1 E.8 F2100
G1 F1200
G1 X131.455 Y103.711 E.06262
G1 X131.455 Y104.245 E.01677
G1 X130.689 Y103.479 E.03402
G1 X130.832 Y104.003 E.01706
G1 X130.857 Y104.181 E.00564
G1 X131.455 Y104.779 E.02656
G1 X131.455 Y105.313 E.01677
G1 X130.89 Y104.748 E.02509
G1 X130.916 Y105.197 E.01412
G1 X130.903 Y105.295 E.0031
G1 X131.455 Y105.847 E.02451
G1 X131.455 Y106.381 E.01677
G1 X130.842 Y105.768 E.02722
G1 X130.78 Y106.24 E.01495
G1 X131.455 Y106.915 E.02998
G1 X131.455 Y107.449 E.01677
G1 X130.659 Y106.653 E.03535
G1 X130.525 Y107.054 E.01328
G1 X131.455 Y107.984 E.0413
G1 X131.455 Y108.518 E.01677
G1 X130.386 Y107.448 E.0475
G1 X130.193 Y107.789 E.0123
G1 X131.455 Y109.052 E.05607
G1 X131.455 Y109.586 E.01677
G1 X129.993 Y108.124 E.06493
G1 X129.794 Y108.459 E.01224
G1 X131.455 Y110.12 E.07377
G1 X131.455 Y110.654 E.01677
G1 X129.549 Y108.748 E.08465
G1 X129.296 Y109.029 E.01187
G1 X131.455 Y111.188 E.09588
G1 X131.455 Y111.722 E.01677
G1 X129.044 Y109.311 E.10707
G1 X128.751 Y109.552 E.01191
G1 X131.455 Y112.256 E.12009
G1 X131.455 Y112.79 E.01677
G1 X128.449 Y109.785 E.13348
G1 X128.14 Y110.009 E.01199
G1 X131.455 Y113.325 E.14724
G1 X131.455 Y113.657 E.01043
G1 X131.254 Y113.658 E.00631
G1 X127.787 Y110.19 E.154
G1 X127.434 Y110.371 E.01246
G1 X130.722 Y113.659 E.14602
G1 X130.189 Y113.661 E.01674
G1 X127.063 Y110.535 E.13883
G1 X126.646 Y110.652 E.0136
G1 X129.656 Y113.662 E.13368
G1 X129.123 Y113.663 E.01674
G1 X126.228 Y110.768 E.12857
G1 X125.981 Y110.837 E.00805
G1 X125.777 Y110.851 E.00642
G1 X128.59 Y113.665 E.12495
G1 X128.058 Y113.666 E.01671
G1 X125.277 Y110.885 E.12351
G1 X124.766 Y110.908 E.01606
G1 X127.525 Y113.667 E.12253
G1 X127.03 Y113.706 E.01559
G1 X126.739 Y113.416 E.0129
;WIPE_START
G1 F8640
G1 X127.03 Y113.706 E-.09486
G1 X127.525 Y113.667 E-.11465
G1 X125.717 Y111.859 E-.59049
;WIPE_END
G1 Z.6 F10800
G1 X123.954 Y110.63
G1 Z.2
G1 E.8 F2100
G1 F1200
G1 X125.134 Y111.81 E.0524
G1 X124.951 Y111.789 E.00578
G1 X124.621 Y111.831 E.01045
G1 X123.5 Y110.711 E.04976
G1 X122.705 Y110.449 E.02629
G1 X124.209 Y111.954 E.06682
G1 X124.101 Y111.999 E.00367
G1 X123.865 Y112.144 E.0087
G1 X118.545 Y106.824 E.23627
G1 X118.545 Y107.358 E.01677
G1 X123.576 Y112.389 E.22343
G1 X123.349 Y112.696 E.01199
G1 X118.545 Y107.892 E.21335
G1 X118.545 Y108.426 E.01677
M73 P7 R10
M73 Q7 S10
G1 X123.163 Y113.044 E.20509
G1 X123.103 Y113.214 E.00566
G1 X123.078 Y113.493 E.0088
G1 X118.545 Y108.96 E.20131
G1 X118.545 Y109.494 E.01677
G1 X122.731 Y113.68 E.1859
G1 X122.183 Y113.667 E.01721
G1 X118.545 Y110.028 E.16159
G1 X118.545 Y110.562 E.01677
G1 X121.648 Y113.665 E.13781
G1 X121.112 Y113.664 E.01683
G1 X118.545 Y111.096 E.11403
G1 X118.545 Y111.631 E.0168
G1 X120.577 Y113.663 E.09024
G1 X120.041 Y113.661 E.01683
G1 X118.545 Y112.165 E.06644
G1 X118.545 Y112.699 E.01677
G1 X119.506 Y113.66 E.04268
G1 X118.97 Y113.658 E.01683
G1 X118.375 Y113.063 E.02642
;WIPE_START
G1 F8640
G1 X118.97 Y113.658 E-.19429
G1 X119.506 Y113.66 E-.12376
G1 X118.545 Y112.699 E-.31381
G1 X118.545 Y112.165 E-.1233
G1 X118.682 Y112.302 E-.04484
;WIPE_END
G1 Z.6 F10800
; stop printing object Anschluss-Element-Corpus v11.stl id:0 copy 0
