; generated by PrusaSlicer 2.7.4+MacOS-arm64 on 2024-12-08 at 11:53:27 UTC


;
;
; 

; external perimeters extrusion width = 0.45mm
; perimeters extrusion width = 0.45mm
; infill extrusion width = 0.45mm
; solid infill extrusion width = 0.45mm
; top infill extrusion width = 0.40mm
; first layer extrusion width = 0.42mm

M73 P0 R18
M73 Q0 S18
M201 X1000 Y1000 Z200 E5000 ; sets maximum accelerations, mm/sec^2
M203 X200 Y200 Z12 E120 ; sets maximum feedrates, mm / sec
M204 S1250 T1250 ; sets acceleration (S) and retract acceleration (R), mm/sec^2
M205 X8.00 Y8.00 Z0.40 E4.50 ; sets the jerk limits, mm/sec
M205 S0 T0 ; sets the minimum extruding and travel feed rate, mm/sec

; printing object Labyrinth (5-gängig) v1.stl id:0 copy 0
; stop printing object Labyrinth (5-gängig) v1.stl id:0 copy 0

;TYPE:Custom
M862.3 P "MK3S" ; printer model check
M862.1 P0.4 ; nozzle diameter check
M115 U3.13.3 ; tell printer latest fw version
G90 ; use absolute coordinates
M83 ; extruder relative mode
M104 S215 ; set extruder temp
M140 S60 ; set bed temp
M190 S60 ; wait for bed temp
M109 S215 ; wait for extruder temp
G28 W ; home all without mesh bed level
G80 X97.4344 Y77.4344 W55.1312 H55.1312 ; mesh bed levelling

G1 Z0.2 F720
G1 Y-3 F1000 ; go outside print area
G92 E0
G1 X60 E9 F1000 ; intro line
G1 X100 E12.5 F1000 ; intro line

G92 E0
M221 S95

; Don't change E values below. Excessive value can damage the printer.

M907 E538 ; set extruder motor current
G21 ; set units to millimeters
G90 ; use absolute coordinates
M83 ; use relative distances for extrusion

M900 K0.05 ; Filament gcode LA 1.5
M900 K30 ; Filament gcode LA 1.0




M107
;LAYER_CHANGE
;Z:0.2
;HEIGHT:0.2
G1 E-.8 F2100
G1 Z.6 F10800
G1 X99.882 Y99.882
G1 Z.2
G1 E.8 F2100
M204 S1000
;TYPE:Skirt/Brim
;WIDTH:0.42
G1 F1200
G1 X121.444 Y78.319 E.95612
G1 X123.125 Y77.623 E.05705
G1 X126.875 Y77.623 E.11758
G1 X128.556 Y78.319 E.05705
G1 X151.681 Y101.444 E1.0254
G1 X152.377 Y103.125 E.05705
M73 Q1 S18
G1 X152.377 Y106.875 E.11758
G1 X151.681 Y108.556 E.05705
M73 P1 R18
G1 X128.556 Y131.681 E1.0254
G1 X126.875 Y132.377 E.05705
G1 X123.125 Y132.377 E.11758
G1 X121.444 Y131.681 E.05705
G1 X98.319 Y108.556 E1.0254
G1 X97.623 Y106.875 E.05705
G1 X97.623 Y103.125 E.11758
G1 X98.319 Y101.444 E.05705
G1 X99.839 Y99.924 E.0674
;WIPE_START
G1 F8640
G1 X99.882 Y99.882 E-.01388
G1 X102.289 Y97.475 E-.78612
;WIPE_END
G1 Z.6 F10800
; printing object Labyrinth (5-gängig) v1.stl id:0 copy 0
G1 X107.067 Y103.502
G1 Z.2
G1 E.8 F2100
;TYPE:Perimeter
;WIDTH:0.419999
G1 F1200
G1 X107.097 Y103.427 E.00253
G1 X107.293 Y101.984 E.04566
G1 X107.541 Y100.779 E.03857
G1 X107.871 Y99.593 E.0386
G1 X108.281 Y98.433 E.03858
G1 X108.77 Y97.304 E.03858
G1 X109.335 Y96.21 E.03861
G1 X109.974 Y95.158 E.03859
G1 X110.662 Y94.182 E.03744
G1 X111.459 Y93.197 E.03973
G1 X112.299 Y92.298 E.03858
G1 X113.198 Y91.458 E.03858
G1 X114.153 Y90.682 E.03858
G1 X115.13 Y89.994 E.03747
G1 X116.212 Y89.334 E.03974
G1 X117.304 Y88.77 E.03854
G1 X118.434 Y88.281 E.03861
G1 X119.594 Y87.87 E.03859
G1 X120.78 Y87.54 E.0386
G1 X121.987 Y87.292 E.03864
G1 X123.409 Y87.099 E.04499
G1 X123.679 Y86.994 E.00908
G1 X123.86 Y86.773 E.00896
G1 X123.912 Y86.537 E.00758
G1 X123.912 Y80.787 E.18029
G1 X126.088 Y80.787 E.06823
G1 X126.088 Y86.537 E.18029
G1 X126.14 Y86.774 E.00761
G1 X126.321 Y86.995 E.00896
G1 X126.572 Y87.097 E.00849
G1 X128.016 Y87.293 E.04569
G1 X129.221 Y87.541 E.03857
G1 X130.407 Y87.871 E.0386
G1 X131.567 Y88.281 E.03858
G1 X132.696 Y88.77 E.03858
G1 X133.82 Y89.353 E.0397
G1 X134.841 Y89.973 E.03745
G1 X135.847 Y90.682 E.03859
G1 X136.802 Y91.459 E.0386
G1 X137.701 Y92.299 E.03858
G1 X138.541 Y93.198 E.03858
M73 P1 R17
G1 X139.318 Y94.153 E.0386
G1 X140.027 Y95.159 E.03859
G1 X140.665 Y96.211 E.03858
G1 X141.23 Y97.304 E.03858
G1 X141.719 Y98.433 E.03858
G1 X142.129 Y99.593 E.03858
G1 X142.459 Y100.779 E.0386
G1 X142.707 Y101.984 E.03857
G1 X142.902 Y103.422 E.0455
G1 X143.004 Y103.677 E.00861
G1 X143.225 Y103.86 E.009
G1 X143.462 Y103.912 E.00761
G1 X149.213 Y103.912 E.18032
G1 X149.213 Y105 E.03411
G1 X149.213 Y106.088 E.03411
G1 X143.463 Y106.088 E.18029
G1 X143.225 Y106.14 E.00764
G1 X143.004 Y106.323 E.009
G1 X142.903 Y106.573 E.00845
G1 X142.707 Y108.018 E.04572
G1 X142.458 Y109.225 E.03864
G1 X142.128 Y110.413 E.03866
G1 X141.716 Y111.575 E.03866
G1 X141.226 Y112.706 E.03865
G1 X140.659 Y113.801 E.03866
G1 X140.018 Y114.854 E.03865
G1 X139.307 Y115.861 E.03865
G1 X138.529 Y116.816 E.03862
G1 X137.686 Y117.716 E.03866
G1 X136.784 Y118.557 E.03867
G1 X135.827 Y119.333 E.03863
G1 X134.818 Y120.042 E.03867
G1 X133.763 Y120.68 E.03866
G1 X132.667 Y121.244 E.03865
G1 X131.535 Y121.732 E.03865
G1 X130.372 Y122.14 E.03864
G1 X129.184 Y122.468 E.03864
G1 X127.976 Y122.714 E.03865
G1 X126.54 Y122.905 E.04542
G1 X126.279 Y123.007 E.00879
G1 X126.097 Y123.224 E.00888
G1 X126.042 Y123.471 E.00793
G1 X126.082 Y129.213 E.18004
G1 X123.904 Y129.213 E.06829
G1 X123.846 Y123.489 E.17948
G1 X123.792 Y123.217 E.00869
G1 X123.612 Y122.998 E.00889
G1 X123.363 Y122.897 E.00843
M73 Q2 S18
G1 X121.926 Y122.697 E.04549
G1 X120.725 Y122.446 E.03847
G1 X119.543 Y122.114 E.03849
G1 X118.387 Y121.701 E.03849
M73 P2 R17
G1 X117.262 Y121.21 E.03849
G1 X116.173 Y120.644 E.03848
G1 X115.125 Y120.004 E.0385
G1 X114.123 Y119.295 E.03849
G1 X113.172 Y118.519 E.03849
G1 X112.277 Y117.679 E.03849
G1 X111.44 Y116.781 E.03849
G1 X110.667 Y115.827 E.0385
G1 X109.961 Y114.823 E.03848
G1 X109.326 Y113.773 E.03847
G1 X108.763 Y112.682 E.03849
G1 X108.276 Y111.555 E.03849
G1 X107.868 Y110.398 E.03847
G1 X107.539 Y109.215 E.0385
G1 X107.292 Y108.013 E.03848
G1 X107.098 Y106.578 E.0454
G1 X106.996 Y106.323 E.00861
G1 X106.775 Y106.14 E.009
G1 X106.538 Y106.088 E.00761
G1 X100.787 Y106.088 E.18032
G1 X100.787 Y103.912 E.06823
G1 X106.538 Y103.912 E.18032
G1 X106.775 Y103.86 E.00761
G1 X106.996 Y103.677 E.009
G1 X107.044 Y103.558 E.00402
G1 X107.044 Y103.558 F10800
G1 X106.724 Y103.373
;TYPE:External perimeter
G1 F1200
G1 X106.921 Y101.921 E.04594
G1 X107.174 Y100.69 E.0394
G1 X107.511 Y99.48 E.03938
G1 X107.93 Y98.295 E.03941
G1 X108.429 Y97.142 E.03939
G1 X109.006 Y96.026 E.03939
G1 X109.658 Y94.952 E.03939
G1 X110.361 Y93.954 E.03828
G1 X111.175 Y92.95 E.04053
G1 X112.032 Y92.032 E.03938
G1 X112.951 Y91.174 E.03942
G1 X113.925 Y90.381 E.03938
G1 X114.923 Y89.678 E.03828
G1 X116.027 Y89.005 E.04054
G1 X117.143 Y88.429 E.03938
G1 X118.296 Y87.93 E.03939
G1 X119.48 Y87.511 E.03938
G1 X120.691 Y87.174 E.03941
G1 X121.924 Y86.92 E.03947
G1 X123.457 Y86.689 E.04861
G1 X123.535 Y86.537 E.00536
G1 X123.535 Y80.41 E.19211
G1 X126.465 Y80.41 E.09187
G1 X126.465 Y86.537 E.19211
G1 X126.515 Y86.665 E.00431
G1 X126.626 Y86.724 E.00394
G1 X128.079 Y86.921 E.04597
G1 X129.31 Y87.174 E.0394
G1 X130.52 Y87.511 E.03938
G1 X131.705 Y87.93 E.03941
G1 X132.858 Y88.429 E.03939
G1 X134.005 Y89.024 E.04051
G1 X135.048 Y89.658 E.03827
G1 X136.075 Y90.382 E.0394
G1 X137.05 Y91.174 E.03939
G1 X137.968 Y92.032 E.0394
G1 X138.826 Y92.95 E.0394
G1 X139.618 Y93.925 E.03939
G1 X140.342 Y94.952 E.0394
G1 X140.994 Y96.026 E.03939
G1 X141.571 Y97.142 E.03939
G1 X142.07 Y98.295 E.03939
G1 X142.489 Y99.48 E.03941
G1 X142.826 Y100.69 E.03938
G1 X143.079 Y101.921 E.0394
G1 X143.276 Y103.372 E.04591
M73 Q2 S17
G1 X143.335 Y103.485 E.004
G1 X143.462 Y103.535 E.00428
G1 X149.59 Y103.535 E.19214
G1 X149.59 Y105 E.04593
G1 X149.59 Y106.465 E.04593
G1 X143.463 Y106.465 E.19211
G1 X143.335 Y106.515 E.00431
G1 X143.276 Y106.627 E.00397
G1 X143.079 Y108.081 E.04601
G1 X142.825 Y109.314 E.03947
G1 X142.487 Y110.526 E.03945
G1 X142.067 Y111.713 E.03948
G1 X141.566 Y112.868 E.03947
G1 X140.988 Y113.985 E.03943
G1 X140.334 Y115.061 E.03948
G1 X139.608 Y116.089 E.03946
G1 X138.813 Y117.065 E.03947
G1 X137.953 Y117.984 E.03946
G1 X137.032 Y118.841 E.03945
G1 X136.054 Y119.634 E.03948
G1 X135.024 Y120.358 E.03947
G1 X133.947 Y121.009 E.03946
G1 X132.828 Y121.585 E.03946
G1 X131.672 Y122.083 E.03947
G1 X130.485 Y122.5 E.03945
G1 X129.272 Y122.835 E.03946
G1 X128.038 Y123.086 E.03948
G1 X126.498 Y123.313 E.04881
G1 X126.419 Y123.468 E.00545
G1 X126.462 Y129.59 E.19196
G1 X123.531 Y129.59 E.0919
G1 X123.469 Y123.493 E.19118
G1 X123.418 Y123.328 E.00541
G1 X123.308 Y123.27 E.0039
G1 X121.861 Y123.069 E.04581
G1 X120.635 Y122.813 E.03927
G1 X119.428 Y122.473 E.03932
G1 X118.248 Y122.052 E.03928
G1 X117.099 Y121.551 E.0393
G1 X115.987 Y120.972 E.03931
G1 X114.918 Y120.32 E.03926
G1 X113.895 Y119.595 E.03931
G1 X112.924 Y118.803 E.03929
G1 X112.009 Y117.946 E.03931
G1 X111.156 Y117.028 E.03929
G1 X110.366 Y116.055 E.0393
G1 X109.646 Y115.029 E.0393
G1 X108.996 Y113.957 E.03931
G1 X108.422 Y112.843 E.03929
G1 X107.925 Y111.693 E.03928
G1 X107.508 Y110.511 E.0393
G1 X107.172 Y109.304 E.03928
G1 X106.92 Y108.076 E.03931
G1 X106.69 Y106.543 E.0486
G1 X106.538 Y106.465 E.00536
G1 X100.41 Y106.465 E.19214
G1 X100.41 Y103.535 E.09187
G1 X106.538 Y103.535 E.19214
G1 X106.665 Y103.485 E.00428
G1 X106.696 Y103.426 E.00209
;WIPE_START
G1 F8640
G1 X106.724 Y103.373 E-.01384
G1 X106.921 Y101.921 E-.33834
G1 X107.174 Y100.69 E-.29018
G1 X107.357 Y100.032 E-.15764
;WIPE_END
G1 Z.6 F10800
G1 X125.975 Y81.512
G1 Z.2
G1 E.8 F2100
;TYPE:Solid infill
;WIDTH:0.423092
G1 F1200
G1 X125.533 Y81.07 E.01976
G1 X124.995 Y81.07 E.01701
G1 X125.805 Y81.88 E.03621
M73 Q3 S17
G1 X125.805 Y82.418 E.01701
G1 X124.457 Y81.07 E.06026
G1 X124.195 Y81.07 E.00828
M73 P3 R17
G1 X124.195 Y81.345 E.00869
G1 X125.805 Y82.955 E.07198
G1 X125.805 Y83.493 E.01701
G1 X124.195 Y81.883 E.07198
G1 X124.195 Y82.42 E.01698
G1 X125.805 Y84.031 E.072
G1 X125.805 Y84.568 E.01698
G1 X124.195 Y82.958 E.07198
G1 X124.195 Y83.496 E.01701
G1 X125.805 Y85.106 E.07198
G1 X125.805 Y85.643 E.01698
G1 X124.195 Y84.033 E.07198
G1 X124.195 Y84.571 E.01701
G1 X125.975 Y86.351 E.07958
;WIPE_START
G1 F8640
G1 X124.195 Y84.571 E-.58125
G1 X124.195 Y84.033 E-.12423
G1 X124.484 Y84.323 E-.09452
;WIPE_END
G1 Z.6 F10800
G1 X135.76 Y90.759
G1 Z.2
G1 E.8 F2100
G1 F1200
G1 X137.531 Y92.53 E.07917
G1 X138.328 Y93.384 E.03693
G1 X139.092 Y94.324 E.03829
G1 X139.81 Y95.348 E.03953
G1 X134.652 Y90.19 E.23059
G1 X133.681 Y89.6 E.03592
G1 X133.357 Y89.431 E.01155
G1 X140.573 Y96.647 E.32259
G1 X140.975 Y97.425 E.02768
G1 X141.098 Y97.711 E.00984
G1 X132.289 Y88.902 E.39381
G1 X131.356 Y88.506 E.03204
G1 X141.494 Y98.644 E.45322
G1 X141.788 Y99.476 E.02789
G1 X130.524 Y88.212 E.50356
G1 X129.758 Y87.984 E.02526
G1 X142.016 Y100.242 E.548
G1 X142.211 Y100.974 E.02395
G1 X129.026 Y87.789 E.58944
G1 X128.349 Y87.65 E.02185
G1 X142.35 Y101.651 E.62592
G1 X142.466 Y102.304 E.02097
G1 X127.696 Y87.535 E.66028
G1 X127.075 Y87.451 E.01981
G1 X142.749 Y103.125 E.70071
;WIPE_START
G1 F8640
G1 X140.299 Y100.675 E-.8
;WIPE_END
G1 Z.6 F10800
G1 X149.1 Y104.637
G1 Z.2
G1 E.8 F2100
G1 F1200
M73 Q4 S17
G1 X148.658 Y104.195 E.01976
G1 X148.12 Y104.194 E.01701
M73 P4 R17
G1 X148.93 Y105.005 E.03623
G1 X148.93 Y105.543 E.01701
G1 X147.582 Y104.194 E.06029
G1 X147.044 Y104.194 E.01701
G1 X148.655 Y105.805 E.07202
G1 X148.117 Y105.805 E.01701
G1 X146.506 Y104.194 E.07202
G1 X145.968 Y104.193 E.01701
G1 X147.58 Y105.805 E.07206
G1 X147.042 Y105.805 E.01701
G1 X145.43 Y104.193 E.07206
G1 X144.892 Y104.193 E.01701
G1 X146.504 Y105.805 E.07206
G1 X145.967 Y105.805 E.01698
G1 X144.354 Y104.193 E.07209
G1 X143.816 Y104.192 E.01701
G1 X145.429 Y105.805 E.07211
G1 X144.891 Y105.805 E.01701
G1 X124.195 Y85.109 E.92522
G1 X124.195 Y85.646 E.01698
G1 X144.354 Y105.805 E.90121
G1 X143.816 Y105.805 E.01701
G1 X124.195 Y86.184 E.87716
G1 X124.195 Y86.547 E.01147
G1 X124.164 Y86.69 E.00463
G1 X143.31 Y105.836 E.85593
G1 X143.109 Y105.881 E.00651
G1 X142.934 Y105.998 E.00665
G1 X124.002 Y87.066 E.84636
G1 X123.972 Y87.112 E.00174
G1 X123.754 Y87.282 E.00874
G1 X123.701 Y87.302 E.00179
G1 X142.697 Y106.299 E.84924
G1 X142.633 Y106.471 E.0058
G1 X142.597 Y106.737 E.00849
G1 X123.262 Y87.401 E.8644
G1 X122.789 Y87.466 E.01509
M73 P5 R17
M73 Q5 S17
G1 X142.532 Y107.209 E.88262
G1 X142.468 Y107.682 E.01509
G1 X122.317 Y87.532 E.90083
G1 X121.855 Y87.608 E.0148
G1 X142.392 Y108.145 E.91811
G1 X142.3 Y108.591 E.0144
G1 X121.409 Y87.7 E.93394
G1 X120.964 Y87.791 E.01436
G1 X142.209 Y109.036 E.94976
G1 X142.098 Y109.464 E.01398
G1 X120.536 Y87.902 E.96394
G1 X120.116 Y88.019 E.01378
G1 X141.981 Y109.884 E.97748
G1 X141.864 Y110.305 E.01381
G1 X119.695 Y88.136 E.99107
G1 X119.297 Y88.275 E.01333
M73 P6 R17
M73 Q6 S17
G1 X141.725 Y110.703 E1.00265
G1 X141.584 Y111.1 E.01332
G1 X118.9 Y88.416 E1.0141
G1 X118.505 Y88.558 E.01327
G1 X141.442 Y111.496 E1.02543
G1 X141.279 Y111.871 E.01293
G1 X118.129 Y88.721 E1.03493
G1 X117.754 Y88.883 E.01291
G1 X141.117 Y112.246 E1.04445
G1 X140.952 Y112.619 E.01289
G1 X117.382 Y89.048 E1.05373
G1 X117.027 Y89.231 E.01263
M73 P7 R17
M73 Q7 S17
G1 X140.769 Y112.973 E1.06139
G1 X140.585 Y113.327 E.01261
M73 P7 R16
G1 X116.673 Y89.414 E1.06902
G1 X116.32 Y89.599 E.0126
G1 X140.401 Y113.68 E1.07655
G1 X140.198 Y114.015 E.01238
G1 X115.986 Y89.803 E1.08241
G1 X115.652 Y90.007 E.01237
G1 X139.994 Y114.349 E1.08822
G1 X139.791 Y114.683 E.01236
G1 X115.318 Y90.21 E1.09407
G1 X115.001 Y90.431 E.01222
M73 Q7 S16
G1 X139.569 Y114.999 E1.09832
G1 X139.347 Y115.314 E.01218
M73 P8 R16
M73 Q8 S16
G1 X114.685 Y90.653 E1.1025
G1 X114.37 Y90.875 E.01218
G1 X139.124 Y115.63 E1.10666
G1 X138.886 Y115.929 E.01208
G1 X114.071 Y91.114 E1.10936
G1 X113.774 Y91.355 E.01209
G1 X138.645 Y116.226 E1.11187
G1 X138.404 Y116.522 E.01207
G1 X113.478 Y91.596 E1.11432
G1 X113.194 Y91.85 E.01204
G1 X138.151 Y116.806 E1.11569
G1 X137.891 Y117.084 E.01203
M73 P9 R16
M73 Q9 S16
G1 X112.916 Y92.109 E1.11652
G1 X112.638 Y92.369 E.01203
G1 X137.631 Y117.362 E1.11732
G1 X137.363 Y117.631 E.012
G1 X112.369 Y92.638 E1.11734
G1 X112.109 Y92.916 E.01203
G1 X137.084 Y117.891 E1.11652
G1 X136.806 Y118.15 E.01201
G1 X111.85 Y93.194 E1.11567
G1 X111.596 Y93.478 E.01204
G1 X136.523 Y118.405 E1.11437
G1 X136.226 Y118.645 E.01207
M73 P10 R16
M73 Q10 S16
G1 X111.356 Y93.775 E1.11182
G1 X111.115 Y94.072 E.01209
G1 X135.929 Y118.886 E1.10932
G1 X135.63 Y119.125 E.0121
G1 X110.875 Y94.37 E1.10668
G1 X110.653 Y94.685 E.01218
G1 X135.315 Y119.347 E1.10252
G1 X134.999 Y119.569 E.01221
G1 X110.431 Y95.001 E1.09832
G1 X110.209 Y95.316 E.01218
G1 X134.683 Y119.791 E1.09414
G1 X134.349 Y119.995 E.01237
M73 P11 R16
M73 Q11 S16
G1 X110.006 Y95.651 E1.08828
G1 X109.802 Y95.985 E.01237
G1 X134.014 Y120.197 E1.08241
G1 X133.679 Y120.4 E.01238
G1 X109.599 Y96.32 E1.0765
G1 X109.414 Y96.673 E.0126
G1 X133.328 Y120.586 E1.06906
G1 X132.973 Y120.769 E.01263
G1 X109.231 Y97.027 E1.06139
G1 X109.048 Y97.382 E.01263
G1 X132.618 Y120.951 E1.05368
G1 X132.246 Y121.117 E.01288
M73 P12 R16
G1 X108.883 Y97.754 E1.04445
G1 X108.721 Y98.129 E.01291
M73 Q12 S16
G1 X131.87 Y121.279 E1.03491
G1 X131.495 Y121.441 E.01291
G1 X108.558 Y98.505 E1.02538
G1 X108.416 Y98.9 E.01327
G1 X131.1 Y121.585 E1.01412
G1 X130.703 Y121.724 E.0133
M73 P12 R15
G1 X108.275 Y99.297 E1.00263
G1 X108.136 Y99.695 E.01333
G1 X130.305 Y121.864 E.99107
G1 X129.885 Y121.982 E.01379
G1 X108.019 Y100.116 E.97753
G1 X107.902 Y100.536 E.01378
M73 P13 R15
G1 X129.463 Y122.098 E.96391
G1 X129.037 Y122.21 E.01392
M73 Q13 S16
G1 X107.791 Y100.964 E.94981
G1 X107.7 Y101.409 E.01436
G1 X128.591 Y122.301 E.93396
G1 X128.144 Y122.391 E.01441
M73 Q13 S15
G1 X107.608 Y101.855 E.91807
G1 X107.532 Y102.317 E.0148
G1 X127.683 Y122.468 E.90086
G1 X127.209 Y122.532 E.01512
G1 X107.467 Y102.79 E.88257
G1 X107.402 Y103.262 E.01506
G1 X126.735 Y122.595 E.86429
G1 X126.444 Y122.634 E.00928
M73 P14 R15
G1 X126.285 Y122.683 E.00526
G1 X107.303 Y103.701 E.8486
G1 X107.284 Y103.752 E.00172
M73 Q14 S15
G1 X107.114 Y103.97 E.00874
G1 X107.066 Y104.002 E.00182
G1 X125.972 Y122.908 E.8452
G1 X125.839 Y123.104 E.00749
G1 X125.799 Y123.273 E.00549
G1 X106.69 Y104.164 E.85427
G1 X106.548 Y104.195 E.00459
G1 X106.184 Y104.195 E.01151
G1 X125.762 Y123.773 E.87524
G1 X125.765 Y124.314 E.0171
G1 X105.646 Y104.195 E.89943
