; generated by PrusaSlicer 2.7.4+MacOS-arm64 on 2024-12-27 at 08:20:00 UTC


;
;
; 

; external perimeters extrusion width = 0.45mm
; perimeters extrusion width = 0.45mm
; infill extrusion width = 0.45mm
; solid infill extrusion width = 0.45mm
; top infill extrusion width = 0.40mm
; first layer extrusion width = 0.42mm

; external perimeters extrusion width = 0.45mm
; perimeters extrusion width = 0.45mm
; infill extrusion width = 0.45mm
; solid infill extrusion width = 0.45mm
; top infill extrusion width = 0.40mm
; first layer extrusion width = 0.42mm

; external perimeters extrusion width = 0.45mm
; perimeters extrusion width = 0.45mm
; infill extrusion width = 0.45mm
; solid infill extrusion width = 0.45mm
; top infill extrusion width = 0.40mm
; first layer extrusion width = 0.42mm

; external perimeters extrusion width = 0.45mm
; perimeters extrusion width = 0.45mm
; infill extrusion width = 0.45mm
; solid infill extrusion width = 0.45mm
; top infill extrusion width = 0.40mm
; first layer extrusion width = 0.42mm

M73 P0 R57
M73 Q0 S58
M201 X1000 Y1000 Z200 E5000 ; sets maximum accelerations, mm/sec^2
M203 X200 Y200 Z12 E120 ; sets maximum feedrates, mm / sec
M204 S1250 T1250 ; sets acceleration (S) and retract acceleration (R), mm/sec^2
M205 X8.00 Y8.00 Z0.40 E4.50 ; sets the jerk limits, mm/sec
M205 S0 T0 ; sets the minimum extruding and travel feed rate, mm/sec

; printing object SB-Reset v20.stl id:1 copy 0
; stop printing object SB-Reset v20.stl id:1 copy 0
; printing object SB-Vorne v25.stl id:3 copy 0
; stop printing object SB-Vorne v25.stl id:3 copy 0
; printing object SB-Corpus v11.stl id:2 copy 0
; stop printing object SB-Corpus v11.stl id:2 copy 0
; printing object SB-Hinten v25.stl id:0 copy 0
; stop printing object SB-Hinten v25.stl id:0 copy 0

;TYPE:Custom
M862.3 P "MK3S" ; printer model check
M862.1 P0.4 ; nozzle diameter check
M115 U3.13.3 ; tell printer latest fw version
G90 ; use absolute coordinates
M83 ; extruder relative mode
M104 S215 ; set extruder temp
M140 S60 ; set bed temp
M190 S60 ; wait for bed temp
M109 S215 ; wait for extruder temp
G28 W ; home all without mesh bed level
G80 X82.127 Y82.1844 W86.5839 H45.6312 ; mesh bed levelling

G1 Z0.2 F720
G1 Y-3 F1000 ; go outside print area
G92 E0
G1 X60 E9 F1000 ; intro line
G1 X100 E12.5 F1000 ; intro line

G92 E0
M221 S95

; Don't change E values below. Excessive value can damage the printer.

M907 E538 ; set extruder motor current
G21 ; set units to millimeters
G90 ; use absolute coordinates
M83 ; use relative distances for extrusion

M900 K0.05 ; Filament gcode LA 1.5
M900 K30 ; Filament gcode LA 1.0




M107
;LAYER_CHANGE
;Z:0.2
;HEIGHT:0.2
G1 E-.8 F2100
G1 Z.6 F10800
G1 X88.775 Y85.36
G1 Z.2
G1 E.8 F2100
M204 S1000
;TYPE:Skirt/Brim
;WIDTH:0.42
G1 F1200
G1 X89.699 Y85.065 E.03041
G1 X115.252 Y82.386 E.80559
G1 X134.5 Y82.373 E.60351
G1 X135.381 Y82.542 E.02813
G1 X166.63 Y95.012 E1.05492
G1 X167.563 Y95.622 E.03495
G1 X168.005 Y96.149 E.02157
G1 X168.32 Y96.761 E.02158
G1 X168.522 Y97.843 E.03451
G1 X168.522 Y112.15 E.44859
G1 X168.32 Y113.239 E.03473
G1 X168.005 Y113.851 E.02158
G1 X167.673 Y114.267 E.01669
G1 X167.146 Y114.71 E.02159
G1 X166.63 Y114.988 E.01838
G1 X135.381 Y127.458 E1.05492
G1 X134.5 Y127.627 E.02813
G1 X115.5 Y127.627 E.59573
G1 X114.598 Y127.449 E.02883
G1 X84.187 Y114.98 E1.03055
G1 X83.275 Y114.378 E.03426
G1 X82.749 Y113.718 E.02646
G1 X82.467 Y113.091 E.02156
G1 X82.316 Y112.151 E.02985
G1 X82.348 Y97.428 E.46163
G1 X82.646 Y96.462 E.0317
G1 X87.831 Y86.345 E.35644
G1 X88.734 Y85.403 E.04091
;WIPE_START
G1 F8640
G1 X88.775 Y85.36 E-.01372
G1 X89.699 Y85.065 E-.22396
G1 X92.121 Y84.811 E-.56232
;WIPE_END
G1 Z.6 F10800
; printing object SB-Vorne v25.stl id:3 copy 0
G1 X145.932 Y97.937
G1 Z.2
G1 E.8 F2100
;TYPE:Perimeter
;WIDTH:0.419999
G1 F1200
G1 X165.358 Y97.937 E.60909
G1 X165.358 Y112.063 E.44291
G1 X145.932 Y112.063 E.60909
G1 X145.932 Y97.997 E.44103
G1 X145.932 Y97.997 F10800
G1 X145.668 Y97.628
;TYPE:External perimeter
G1 F1200
G1 X145.868 Y97.56 E.00662
G1 X165.372 Y97.56 E.61153
G1 X165.482 Y97.575 E.00348
G1 X165.667 Y97.673 E.00656
G1 X165.735 Y97.891 E.00716
G1 X165.735 Y112.077 E.44479
G1 X165.72 Y112.187 E.00348
G1 X165.622 Y112.372 E.00656
G1 X165.422 Y112.44 E.00662
G1 X145.918 Y112.44 E.61153
G1 X145.809 Y112.425 E.00345
G1 X145.623 Y112.327 E.00659
G1 X145.555 Y112.127 E.00662
G1 X145.555 Y97.923 E.44536
G1 X145.571 Y97.813 E.00349
G1 X145.64 Y97.681 E.00467
;WIPE_START
G1 F8640
G1 X145.668 Y97.628 E-.01384
G1 X145.868 Y97.56 E-.04878
G1 X149.062 Y97.56 E-.73738
;WIPE_END
G1 Z.6 F10800
G1 X164.48 Y98.05
G1 Z.2
G1 E.8 F2100
;TYPE:Solid infill
;WIDTH:0.421274
G1 F1200
G1 X165.075 Y98.645 E.02647
G1 X165.075 Y99.181 E.01686
G1 X164.115 Y98.22 E.04273
G1 X163.58 Y98.22 E.01683
G1 X165.075 Y99.716 E.06654
G1 X165.075 Y100.251 E.01683
G1 X163.045 Y98.22 E.09034
G1 X162.509 Y98.22 E.01686
G1 X165.075 Y100.786 E.11417
G1 X165.075 Y101.321 E.01683
G1 X161.974 Y98.22 E.13797
G1 X161.439 Y98.22 E.01683
G1 X165.075 Y101.856 E.16177
G1 X165.075 Y102.391 E.01683
G1 X160.904 Y98.22 E.18557
G1 X160.369 Y98.22 E.01683
G1 X165.075 Y102.926 E.20938
G1 X165.075 Y103.461 E.01683
G1 X159.834 Y98.22 E.23318
G1 X159.299 Y98.22 E.01683
G1 X165.075 Y103.996 E.25698
G1 X165.075 Y104.531 E.01683
G1 X158.764 Y98.22 E.28079
G1 X158.229 Y98.22 E.01683
G1 X165.075 Y105.066 E.30459
G1 X165.075 Y105.601 E.01683
G1 X157.694 Y98.22 E.32839
G1 X157.159 Y98.22 E.01683
G1 X165.075 Y106.137 E.35222
G1 X165.075 Y106.672 E.01683
G1 X156.624 Y98.22 E.37602
G1 X156.089 Y98.22 E.01683
G1 X165.075 Y107.207 E.39982
G1 X165.075 Y107.742 E.01683
G1 X155.554 Y98.22 E.42363
G1 X155.018 Y98.22 E.01686
G1 X165.075 Y108.277 E.44745
G1 X165.075 Y108.812 E.01683
M73 Q0 S57
G1 X154.483 Y98.22 E.47125
G1 X153.948 Y98.22 E.01683
M73 P1 R57
M73 Q1 S57
G1 X165.075 Y109.347 E.49506
G1 X165.075 Y109.882 E.01683
G1 X153.413 Y98.22 E.51886
G1 X152.878 Y98.22 E.01683
G1 X165.075 Y110.417 E.54266
G1 X165.075 Y110.952 E.01683
G1 X152.343 Y98.22 E.56647
G1 X151.808 Y98.22 E.01683
G1 X165.075 Y111.487 E.59027
G1 X165.075 Y111.78 E.00922
G1 X164.833 Y111.78 E.00761
G1 X151.273 Y98.22 E.60331
G1 X150.738 Y98.22 E.01683
G1 X164.298 Y111.78 E.60331
G1 X163.763 Y111.78 E.01683
G1 X150.203 Y98.22 E.60331
G1 X149.668 Y98.22 E.01683
G1 X163.228 Y111.78 E.60331
G1 X162.693 Y111.78 E.01683
G1 X149.133 Y98.22 E.60331
G1 X148.598 Y98.22 E.01683
G1 X162.158 Y111.78 E.60331
G1 X161.623 Y111.78 E.01683
G1 X148.063 Y98.22 E.60331
G1 X147.527 Y98.22 E.01686
G1 X161.088 Y111.78 E.60333
G1 X160.553 Y111.78 E.01683
G1 X146.992 Y98.22 E.60333
G1 X146.457 Y98.22 E.01683
G1 X160.018 Y111.78 E.60333
G1 X159.482 Y111.78 E.01686
G1 X146.215 Y98.513 E.59027
G1 X146.215 Y99.048 E.01683
G1 X158.947 Y111.78 E.56647
G1 X158.412 Y111.78 E.01683
G1 X146.215 Y99.583 E.54266
G1 X146.215 Y100.118 E.01683
G1 X157.877 Y111.78 E.51886
G1 X157.342 Y111.78 E.01683
G1 X146.215 Y100.653 E.49506
G1 X146.215 Y101.188 E.01683
G1 X156.807 Y111.78 E.47125
G1 X156.272 Y111.78 E.01683
G1 X146.215 Y101.723 E.44745
G1 X146.215 Y102.258 E.01683
G1 X155.737 Y111.78 E.42365
G1 X155.202 Y111.78 E.01683
G1 X146.215 Y102.793 E.39985
G1 X146.215 Y103.328 E.01683
G1 X154.667 Y111.78 E.37604
G1 X154.132 Y111.78 E.01683
G1 X146.215 Y103.864 E.35222
G1 X146.215 Y104.399 E.01683
G1 X153.597 Y111.78 E.32841
G1 X153.062 Y111.78 E.01683
G1 X146.215 Y104.934 E.30461
G1 X146.215 Y105.469 E.01683
G1 X152.526 Y111.78 E.28079
G1 X151.991 Y111.78 E.01683
G1 X146.215 Y106.004 E.25698
G1 X146.215 Y106.539 E.01683
M73 P1 R56
G1 X151.456 Y111.78 E.23318
G1 X150.921 Y111.78 E.01683
G1 X146.215 Y107.074 E.20938
G1 X146.215 Y107.609 E.01683
G1 X150.386 Y111.78 E.18557
G1 X149.851 Y111.78 E.01683
G1 X146.215 Y108.144 E.16177
G1 X146.215 Y108.679 E.01683
G1 X149.316 Y111.78 E.13797
G1 X148.781 Y111.78 E.01683
G1 X146.215 Y109.214 E.11417
G1 X146.215 Y109.749 E.01683
G1 X148.246 Y111.78 E.09036
G1 X147.711 Y111.78 E.01683
G1 X146.215 Y110.284 E.06656
G1 X146.215 Y110.82 E.01686
G1 X147.176 Y111.78 E.04273
G1 X146.641 Y111.78 E.01683
G1 X146.045 Y111.185 E.02649
;WIPE_START
G1 F8640
G1 X146.641 Y111.78 E-.19446
G1 X147.176 Y111.78 E-.12353
G1 X146.215 Y110.82 E-.31365
G1 X146.215 Y110.284 E-.12376
G1 X146.352 Y110.421 E-.0446
;WIPE_END
G1 Z.6 F10800
; stop printing object SB-Vorne v25.stl id:3 copy 0
; printing object SB-Corpus v11.stl id:2 copy 0
G1 X133.723 Y112.879
G1 Z.2
G1 E.8 F2100
;TYPE:Perimeter
;WIDTH:0.419999
G1 F1200
G1 X133.713 Y124.463 E.36321
G1 X116.287 Y124.463 E.54638
G1 X116.274 Y112.393 E.37845
;WIDTH:0.394381
G1 X116.274 Y89.35 E.67341
;WIDTH:0.419999
G1 X116.287 Y85.537 E.11955
G1 X133.713 Y85.537 E.54638
G1 X133.713 Y87.161 E.05092
G1 X133.726 Y89.35 E.06864
;WIDTH:0.394381
G1 X133.726 Y112.393 E.67341
;WIDTH:0.399901
G1 X133.723 Y112.52 E.00377
;WIDTH:0.419999
G1 X133.723 Y112.819 E.00937
;WIPE_START
G1 F8640
G1 X133.723 Y112.879 E-.01385
G1 X133.72 Y116.284 E-.78615
;WIPE_END
G1 Z.6 F10800
G1 X134.09 Y124.84
G1 Z.2
G1 E.8 F2100
;TYPE:External perimeter
G1 F1200
G1 X115.91 Y124.84 E.57002
G1 X115.91 Y85.16 E1.24414
M73 P2 R56
M73 Q2 S57
G1 X134.09 Y85.16 E.57002
G1 X134.09 Y87.161 E.06274
G1 X134.09 Y124.78 E1.17952
;WIPE_START
G1 F8640
G1 X134.09 Y124.84 E-.01385
G1 X130.685 Y124.84 E-.78615
;WIPE_END
G1 Z.6 F10800
G1 X132.917 Y112.927
G1 Z.2
G1 E.8 F2100
;TYPE:Perimeter
G1 F1200
G1 X132.821 Y112.959 E.00317
G1 X117.179 Y112.959 E.49044
G1 X116.839 Y112.845 E.01124
G1 X116.631 Y112.489 E.01293
;WIDTH:0.399901
G1 X116.626 Y112.393 E.00285
;WIDTH:0.394381
G1 X116.626 Y89.35 E.67341
;WIDTH:0.419999
G1 X116.839 Y88.898 E.01567
G1 X117.179 Y88.784 E.01124
G1 X132.821 Y88.784 E.49044
G1 X133.161 Y88.898 E.01124
G1 X133.374 Y89.35 E.01567
;WIDTH:0.394381
G1 X133.374 Y112.393 E.67341
;WIDTH:0.399901
G1 X133.369 Y112.489 E.00285
;WIDTH:0.419999
G1 X133.161 Y112.845 E.01293
G1 X132.974 Y112.908 E.00619
G1 X132.974 Y112.908 F10800
G1 X132.821 Y112.582
;TYPE:External perimeter
G1 F1200
G1 X117.179 Y112.582 E.49044
G1 X117.065 Y112.544 E.00377
G1 X116.99 Y112.393 E.00529
G1 X116.99 Y89.35 E.7225
G1 X117.065 Y89.199 E.00529
G1 X117.179 Y89.162 E.00376
G1 X132.821 Y89.162 E.49044
G1 X132.935 Y89.199 E.00376
G1 X133.01 Y89.35 E.00529
G1 X133.01 Y112.393 E.7225
G1 X132.935 Y112.544 E.00529
G1 X132.878 Y112.563 E.00188
G1 X132.878 Y112.563 F10800
G1 X133.002 Y113.008
;TYPE:Solid infill
;WIDTH:0.427113
G1 F1200
G1 X133.43 Y113.436 E.01934
G1 X133.43 Y113.979 E.01735
G1 X132.692 Y113.241 E.03334
G1 X132.149 Y113.241 E.01735
G1 X133.43 Y114.523 E.0579
G1 X133.43 Y115.066 E.01735
G1 X131.606 Y113.241 E.08243
G1 X131.062 Y113.241 E.01738
G1 X133.43 Y115.609 E.10698
G1 X133.43 Y116.153 E.01738
G1 X130.519 Y113.241 E.13154
G1 X129.976 Y113.241 E.01735
G1 X133.43 Y116.696 E.15607
G1 X133.43 Y117.239 E.01735
G1 X129.432 Y113.241 E.18062
G1 X128.889 Y113.241 E.01735
G1 X133.43 Y117.783 E.20518
G1 X133.43 Y118.326 E.01735
G1 X128.346 Y113.241 E.22971
G1 X127.802 Y113.241 E.01738
G1 X133.43 Y118.869 E.25426
G1 X133.43 Y119.413 E.01738
G1 X127.259 Y113.241 E.27882
G1 X126.716 Y113.241 E.01735
G1 X133.43 Y119.956 E.30335
G1 X133.43 Y120.499 E.01735
G1 X126.172 Y113.241 E.3279
G1 X125.629 Y113.241 E.01735
G1 X133.43 Y121.043 E.35246
G1 X133.43 Y121.586 E.01735
G1 X125.086 Y113.241 E.37699
G1 X124.542 Y113.241 E.01738
G1 X133.43 Y122.129 E.40154
G1 X133.43 Y122.673 E.01738
G1 X123.999 Y113.241 E.4261
G1 X123.456 Y113.241 E.01735
G1 X133.43 Y123.216 E.45063
G1 X133.43 Y123.759 E.01735
G1 X122.912 Y113.241 E.47518
G1 X122.369 Y113.241 E.01735
G1 X133.308 Y124.18 E.4942
G1 X132.764 Y124.18 E.01738
G1 X121.826 Y113.241 E.49418
G1 X121.282 Y113.241 E.01738
G1 X132.221 Y124.18 E.4942
G1 X131.678 Y124.18 E.01735
M73 Q2 S56
G1 X120.739 Y113.241 E.4942
G1 X120.196 Y113.241 E.01735
G1 X131.134 Y124.18 E.49418
G1 X130.591 Y124.18 E.01735
G1 X119.652 Y113.241 E.4942
G1 X119.109 Y113.241 E.01735
G1 X130.048 Y124.18 E.4942
G1 X129.504 Y124.18 E.01738
G1 X118.566 Y113.241 E.49418
G1 X118.022 Y113.241 E.01738
G1 X128.961 Y124.18 E.4942
G1 X128.418 Y124.18 E.01735
G1 X117.479 Y113.241 E.4942
G1 X117.163 Y113.241 E.01009
G1 X116.822 Y113.128 E.01148
G1 X127.874 Y124.18 E.49931
G1 X127.331 Y124.18 E.01735
G1 X116.57 Y113.419 E.48616
G1 X116.57 Y113.962 E.01735
G1 X126.788 Y124.18 E.46163
G1 X126.244 Y124.18 E.01738
G1 X116.57 Y114.506 E.43705
G1 X116.57 Y115.049 E.01735
G1 X125.701 Y124.18 E.41252
G1 X125.158 Y124.18 E.01735
G1 X116.57 Y115.592 E.38799
G1 X116.57 Y116.136 E.01738
M73 P3 R56
G1 X124.614 Y124.18 E.36341
G1 X124.071 Y124.18 E.01735
M73 Q3 S56
G1 X116.57 Y116.679 E.33888
G1 X116.57 Y117.222 E.01735
G1 X123.528 Y124.18 E.31435
G1 X122.984 Y124.18 E.01738
G1 X116.57 Y117.766 E.28977
G1 X116.57 Y118.309 E.01735
G1 X122.441 Y124.18 E.26524
G1 X121.898 Y124.18 E.01735
G1 X116.57 Y118.852 E.24071
G1 X116.57 Y119.396 E.01738
G1 X121.354 Y124.18 E.21613
G1 X120.811 Y124.18 E.01735
G1 X116.57 Y119.939 E.1916
G1 X116.57 Y120.482 E.01735
G1 X120.268 Y124.18 E.16707
G1 X119.724 Y124.18 E.01738
G1 X116.57 Y121.026 E.14249
G1 X116.57 Y121.569 E.01735
G1 X119.181 Y124.18 E.11796
G1 X118.638 Y124.18 E.01735
G1 X116.57 Y122.112 E.09343
G1 X116.57 Y122.656 E.01738
G1 X118.094 Y124.18 E.06885
G1 X117.551 Y124.18 E.01735
G1 X116.57 Y123.199 E.04432
G1 X116.57 Y123.742 E.01735
G1 X117.177 Y124.35 E.02745
;WIPE_START
G1 F8640
G1 X116.57 Y123.742 E-.19838
G1 X116.57 Y123.199 E-.12538
G1 X117.551 Y124.18 E-.32034
G1 X118.094 Y124.18 E-.12538
G1 X118.001 Y124.087 E-.03052
;WIPE_END
G1 Z.6 F10800
G1 X133.6 Y86.424
G1 Z.2
G1 E.8 F2100
;WIDTH:0.425647
G1 F1200
G1 X132.995 Y85.82 E.02721
G1 X132.454 Y85.82 E.01722
G1 X133.43 Y86.796 E.04393
G1 X133.43 Y87.337 E.01722
G1 X131.913 Y85.82 E.06827
G1 X131.371 Y85.82 E.01725
G1 X133.43 Y87.879 E.09267
G1 X133.43 Y88.42 E.01722
G1 X130.83 Y85.82 E.11701
G1 X130.289 Y85.82 E.01722
G1 X133.038 Y88.569 E.12372
G1 X132.837 Y88.502 E.00674
G1 X132.429 Y88.502 E.01298
G1 X129.748 Y85.82 E.12068
G1 X129.206 Y85.82 E.01725
G1 X131.888 Y88.502 E.12071
G1 X131.347 Y88.502 E.01722
G1 X128.665 Y85.82 E.12071
G1 X128.124 Y85.82 E.01722
G1 X130.806 Y88.502 E.12071
G1 X130.264 Y88.502 E.01725
G1 X127.583 Y85.82 E.12068
G1 X127.041 Y85.82 E.01725
G1 X129.723 Y88.502 E.12071
G1 X129.182 Y88.502 E.01722
G1 X126.5 Y85.82 E.12071
G1 X125.959 Y85.82 E.01722
G1 X128.641 Y88.502 E.12071
G1 X128.099 Y88.502 E.01725
G1 X125.418 Y85.82 E.12068
G1 X124.876 Y85.82 E.01725
G1 X127.558 Y88.502 E.12071
G1 X127.017 Y88.502 E.01722
G1 X124.335 Y85.82 E.12071
G1 X123.794 Y85.82 E.01722
G1 X126.476 Y88.502 E.12071
G1 X125.934 Y88.502 E.01725
G1 X123.253 Y85.82 E.12068
G1 X122.711 Y85.82 E.01725
G1 X125.393 Y88.502 E.12071
G1 X124.852 Y88.502 E.01722
G1 X122.17 Y85.82 E.12071
G1 X121.629 Y85.82 E.01722
G1 X124.311 Y88.502 E.12071
G1 X123.769 Y88.502 E.01725
G1 X121.088 Y85.82 E.12068
G1 X120.546 Y85.82 E.01725
G1 X123.228 Y88.502 E.12071
G1 X122.687 Y88.502 E.01722
G1 X120.005 Y85.82 E.12071
G1 X119.464 Y85.82 E.01722
G1 X122.146 Y88.502 E.12071
G1 X121.604 Y88.502 E.01725
G1 X118.923 Y85.82 E.12068
G1 X118.381 Y85.82 E.01725
G1 X121.063 Y88.502 E.12071
G1 X120.522 Y88.502 E.01722
G1 X117.84 Y85.82 E.12071
G1 X117.299 Y85.82 E.01722
G1 X119.981 Y88.502 E.12071
G1 X119.439 Y88.502 E.01725
G1 X116.758 Y85.82 E.12068
G1 X116.57 Y85.82 E.00598
G1 X116.57 Y86.174 E.01127
G1 X118.898 Y88.502 E.10477
G1 X118.357 Y88.502 E.01722
G1 X116.57 Y86.715 E.08043
G1 X116.57 Y87.256 E.01722
G1 X117.815 Y88.502 E.05605
G1 X117.274 Y88.502 E.01722
G1 X116.57 Y87.797 E.03171
G1 X116.57 Y88.339 E.01725
G1 X116.975 Y88.743 E.0182
;WIPE_START
G1 F8640
G1 X116.57 Y88.339 E-.13209
G1 X116.57 Y87.797 E-.12515
G1 X117.274 Y88.502 E-.23005
G1 X117.815 Y88.502 E-.12492
G1 X117.24 Y87.927 E-.18779
;WIPE_END
G1 Z.6 F10800
; stop printing object SB-Corpus v11.stl id:2 copy 0
; printing object SB-Hinten v25.stl id:0 copy 0
G1 X105.004 Y102.153
G1 Z.2
G1 E.8 F2100
;TYPE:Perimeter
;WIDTH:0.419999
G1 F1200
G1 X104.474 Y102.035 E.01702
G1 X103.358 Y101.964 E.03506
G1 X95.583 Y101.964 E.24378
