; generated by PrusaSlicer 2.7.4+MacOS-arm64 on 2024-12-10 at 15:13:27 UTC


;
;
; 

; external perimeters extrusion width = 0.45mm
; perimeters extrusion width = 0.45mm
; infill extrusion width = 0.45mm
; solid infill extrusion width = 0.45mm
; top infill extrusion width = 0.40mm
; first layer extrusion width = 0.42mm

M73 P0 R12
M73 Q0 S12
M201 X1000 Y1000 Z200 E5000 ; sets maximum accelerations, mm/sec^2
M203 X200 Y200 Z12 E120 ; sets maximum feedrates, mm / sec
M204 S1250 T1250 ; sets acceleration (S) and retract acceleration (R), mm/sec^2
M205 X8.00 Y8.00 Z0.40 E4.50 ; sets the jerk limits, mm/sec
M205 S0 T0 ; sets the minimum extruding and travel feed rate, mm/sec

; printing object Labyrinth (5-gängig) v5.stl id:0 copy 0
; stop printing object Labyrinth (5-gängig) v5.stl id:0 copy 0

;TYPE:Custom
M862.3 P "MK3S" ; printer model check
M862.1 P0.4 ; nozzle diameter check
M115 U3.13.3 ; tell printer latest fw version
G90 ; use absolute coordinates
M83 ; extruder relative mode
M104 S215 ; set extruder temp
M140 S60 ; set bed temp
M190 S60 ; wait for bed temp
M109 S215 ; wait for extruder temp
G28 W ; home all without mesh bed level
G80 X103.685 Y83.6845 W42.6305 H42.6307 ; mesh bed levelling

G1 Z0.2 F720
G1 Y-3 F1000 ; go outside print area
G92 E0
G1 X60 E9 F1000 ; intro line
G1 X100 E12.5 F1000 ; intro line

G92 E0
M221 S95

; Don't change E values below. Excessive value can damage the printer.

M907 E538 ; set extruder motor current
G21 ; set units to millimeters
G90 ; use absolute coordinates
M83 ; use relative distances for extrusion

M900 K0.05 ; Filament gcode LA 1.5
M900 K30 ; Filament gcode LA 1.0




M107
;LAYER_CHANGE
;Z:0.2
;HEIGHT:0.2
G1 E-.8 F2100
G1 Z.6 F10800
G1 X108.985 Y91.224
G1 Z.2
G1 E.8 F2100
M204 S1000
;TYPE:Skirt/Brim
;WIDTH:0.42
G1 F1200
M73 Q1 S12
G1 X110.078 Y90.045 E.05041
G1 X111.98 Y88.365 E.07957
G1 X113.282 Y87.421 E.05042
G1 X115.476 Y86.144 E.0796
M73 P1 R12
G1 X116.936 Y85.473 E.05038
G1 X119.337 Y84.648 E.0796
G1 X120.901 Y84.275 E.05041
G1 X123.416 Y83.935 E.07957
G1 X125.034 Y83.873 E.05077
G1 X127.561 Y84.031 E.07939
G1 X129.147 Y84.284 E.05036
G1 X131.602 Y84.933 E.07962
G1 X133.109 Y85.492 E.0504
G1 X135.39 Y86.607 E.07961
G1 X136.759 Y87.448 E.05038
G1 X138.779 Y88.987 E.07962
G1 X139.957 Y90.08 E.05039
G1 X141.638 Y91.983 E.07961
G1 X142.581 Y93.284 E.05038
G1 X143.857 Y95.479 E.07961
G1 X144.528 Y96.939 E.05038
G1 X145.353 Y99.34 E.0796
G1 X145.726 Y100.904 E.05041
G1 X146.066 Y103.42 E.0796
G1 X146.127 Y105.026 E.05039
G1 X145.969 Y107.56 E.07961
G1 X145.716 Y109.146 E.05036
G1 X145.067 Y111.601 E.07962
G1 X144.509 Y113.108 E.05039
G1 X143.394 Y115.389 E.07961
G1 X142.552 Y116.758 E.05039
G1 X141.013 Y118.778 E.07962
G1 X139.921 Y119.957 E.05039
G1 X138.018 Y121.637 E.07959
G1 X136.717 Y122.58 E.05038
G1 X134.522 Y123.857 E.07962
G1 X133.062 Y124.528 E.05038
G1 X130.661 Y125.352 E.07959
G1 X129.097 Y125.726 E.05042
G1 X126.582 Y126.065 E.07957
G1 X124.975 Y126.127 E.05042
G1 X122.442 Y125.969 E.07957
G1 X120.854 Y125.716 E.05042
G1 X118.4 Y125.067 E.07959
G1 X116.893 Y124.509 E.05039
G1 X114.612 Y123.394 E.07961
G1 X113.242 Y122.553 E.0504
G1 X111.223 Y121.014 E.0796
G1 X110.044 Y119.922 E.05039
G1 X108.364 Y118.019 E.07959
G1 X107.421 Y116.717 E.05041
G1 X106.144 Y114.523 E.0796
G1 X105.472 Y113.063 E.05039
G1 X104.648 Y110.662 E.07959
G1 X104.275 Y109.098 E.05041
G1 X103.935 Y106.583 E.07957
G1 X103.873 Y104.976 E.05042
G1 X104.031 Y102.443 E.07957
G1 X104.284 Y100.855 E.05042
G1 X104.932 Y98.401 E.07958
G1 X105.49 Y96.894 E.05039
G1 X106.605 Y94.613 E.07961
G1 X107.447 Y93.243 E.05042
G1 X108.949 Y91.272 E.0777
;WIPE_START
G1 F8640
G1 X108.985 Y91.224 E-.01385
G1 X110.078 Y90.045 E-.37122
G1 X111.425 Y88.855 E-.41493
;WIPE_END
G1 Z.6 F10800
; printing object Labyrinth (5-gängig) v5.stl id:0 copy 0
G1 X111.481 Y93.173
G1 Z.2
G1 E.8 F2100
;TYPE:Perimeter
;WIDTH:0.419999
G1 F1200
G1 X112.313 Y92.284 E.03818
G1 X113.172 Y91.482 E.03685
G1 X114.048 Y90.763 E.03553
G1 X115.038 Y90.054 E.03818
G1 X116.037 Y89.434 E.03686
G1 X117.036 Y88.9 E.03552
G1 X118.145 Y88.397 E.03818
G1 X119.246 Y87.984 E.03687
M73 Q2 S12
G1 X120.33 Y87.655 E.03552
G1 X121.516 Y87.379 E.03818
G1 X122.676 Y87.189 E.03686
G1 X123.803 Y87.078 E.03551
M73 P2 R12
G1 X125.056 Y87.038 E.03931
G1 X126.196 Y87.078 E.03577
G1 X127.324 Y87.189 E.03554
G1 X128.526 Y87.387 E.0382
G1 X129.629 Y87.644 E.03551
G1 X130.754 Y87.984 E.03685
G1 X131.894 Y88.413 E.03819
G1 X132.926 Y88.881 E.03553
G1 X133.963 Y89.434 E.03685
G1 X134.997 Y90.077 E.03818
G1 X135.918 Y90.737 E.03553
G1 X136.828 Y91.482 E.03687
G1 X137.716 Y92.314 E.03815
G1 X138.491 Y93.141 E.03554
G1 X139.238 Y94.049 E.03687
G1 X139.947 Y95.039 E.03818
G1 X140.545 Y96.001 E.03552
G1 X141.101 Y97.037 E.03687
G1 X141.603 Y98.146 E.03817
G1 X142.002 Y99.207 E.03554
G1 X142.345 Y100.331 E.03685
G1 X142.621 Y101.517 E.03818
G1 X142.806 Y102.635 E.03553
G1 X142.922 Y103.805 E.03686
G1 X142.962 Y105.021 E.03815
G1 X142.943 Y105.593 E.01794
G1 X142.925 Y106.154 E.0176
G1 X142.811 Y107.324 E.03686
G1 X142.613 Y108.525 E.03816
G1 X142.356 Y109.629 E.03554
G1 X142.016 Y110.754 E.03685
G1 X141.587 Y111.894 E.03819
G1 X141.119 Y112.926 E.03553
G1 X140.566 Y113.963 E.03685
G1 X139.923 Y114.997 E.03818
G1 X139.263 Y115.918 E.03553
G1 X138.518 Y116.828 E.03687
G1 X137.686 Y117.716 E.03815
G1 X136.859 Y118.491 E.03554
G1 X135.951 Y119.238 E.03687
G1 X134.962 Y119.947 E.03815
G1 X133.999 Y120.545 E.03554
G1 X132.963 Y121.101 E.03687
G1 X131.854 Y121.603 E.03817
G1 X130.794 Y122.002 E.03551
G1 X129.669 Y122.345 E.03688
G1 X128.483 Y122.621 E.03818
G1 X127.365 Y122.806 E.03553
G1 X126.196 Y122.922 E.03683
G1 X124.979 Y122.962 E.03818
G1 X123.846 Y122.925 E.03554
G1 X122.676 Y122.811 E.03686
G1 X121.475 Y122.613 E.03816
G1 X120.331 Y122.345 E.03684
G1 X119.246 Y122.016 E.03555
G1 X118.107 Y121.587 E.03816
G1 X117.037 Y121.101 E.03685
G1 X116.037 Y120.566 E.03556
G1 X115.003 Y119.923 E.03818
G1 X114.049 Y119.238 E.03682
G1 X113.173 Y118.519 E.03553
G1 X112.284 Y117.686 E.0382
G1 X111.482 Y116.828 E.03682
G1 X110.763 Y115.952 E.03553
G1 X110.053 Y114.962 E.0382
G1 X109.434 Y113.963 E.03685
G1 X108.9 Y112.964 E.03552
G1 X108.397 Y111.855 E.03818
G1 X107.984 Y110.754 E.03687
G1 X107.655 Y109.67 E.03552
G1 X107.379 Y108.484 E.03818
G1 X107.189 Y107.324 E.03686
G1 X107.078 Y106.196 E.03554
G1 X107.038 Y104.979 E.03818
G1 X107.078 Y103.805 E.03683
G1 X107.189 Y102.677 E.03554
G1 X107.387 Y101.475 E.0382
G1 X107.655 Y100.331 E.03684
G1 X107.984 Y99.247 E.03552
G1 X108.413 Y98.107 E.03819
G1 X108.899 Y97.037 E.03685
G1 X109.434 Y96.038 E.03553
G1 X110.076 Y95.004 E.03816
G1 X110.762 Y94.049 E.03687
G1 X111.443 Y93.219 E.03366
G1 X111.443 Y93.219 F10800
G1 X111.197 Y92.924
;TYPE:External perimeter
G1 F1200
G1 X112.047 Y92.017 E.03897
G1 X112.924 Y91.198 E.03762
G1 X113.818 Y90.463 E.03629
G1 X114.828 Y89.74 E.03895
G1 X115.848 Y89.107 E.03764
G1 X116.869 Y88.561 E.0363
G1 X118.001 Y88.049 E.03895
G1 X119.125 Y87.627 E.03764
G1 X120.233 Y87.291 E.0363
G1 X121.443 Y87.009 E.03896
G1 X122.627 Y86.815 E.03762
G1 X123.779 Y86.701 E.0363
G1 X125.057 Y86.661 E.04009
G1 X126.221 Y86.701 E.03652
G1 X127.373 Y86.815 E.0363
G1 X128.599 Y87.017 E.03896
G1 X129.727 Y87.28 E.03632
G1 X130.875 Y87.627 E.0376
G1 X132.038 Y88.065 E.03897
M73 P2 R11
G1 X133.093 Y88.543 E.03632
G1 X134.152 Y89.107 E.03762
G1 X135.207 Y89.763 E.03895
G1 X136.148 Y90.438 E.03631
G1 X137.076 Y91.198 E.03761
G1 X137.983 Y92.047 E.03895
G1 X138.775 Y92.892 E.03631
G1 X139.537 Y93.819 E.03762
G1 X140.261 Y94.829 E.03896
G1 X140.872 Y95.812 E.03629
G1 X141.439 Y96.87 E.03764
G1 X141.952 Y98.002 E.03897
G1 X142.359 Y99.085 E.03628
G1 X142.709 Y100.233 E.03763
G1 X142.991 Y101.443 E.03896
G1 X143.18 Y102.585 E.03629
G1 X143.299 Y103.78 E.03765
G1 X143.339 Y105.021 E.03893
G1 X143.32 Y105.605 E.01832
M73 Q3 S12
G1 X143.302 Y106.179 E.01801
G1 X143.185 Y107.373 E.03762
G1 X142.983 Y108.599 E.03896
G1 X142.72 Y109.726 E.03629
M73 P3 R11
G1 X142.373 Y110.875 E.03763
G1 X141.935 Y112.038 E.03897
G1 X141.457 Y113.092 E.03629
G1 X140.893 Y114.152 E.03765
G1 X140.237 Y115.207 E.03895
G1 X139.562 Y116.148 E.03631
G1 X138.802 Y117.076 E.03761
G1 X137.953 Y117.983 E.03895
G1 X137.108 Y118.775 E.03631
G1 X136.181 Y119.537 E.03762
G1 X135.171 Y120.261 E.03896
G1 X134.188 Y120.872 E.03629
G1 X133.13 Y121.439 E.03764
G1 X131.999 Y121.952 E.03894
G1 X130.915 Y122.359 E.0363
G1 X129.767 Y122.709 E.03763
G1 X128.557 Y122.991 E.03896
G1 X127.415 Y123.18 E.03629
G1 X126.221 Y123.299 E.03762
G1 X124.979 Y123.339 E.03896
G1 X123.822 Y123.302 E.0363
G1 X122.627 Y123.185 E.03765
G1 X121.401 Y122.983 E.03896
G1 X120.233 Y122.709 E.03762
G1 X119.125 Y122.373 E.0363
G1 X117.962 Y121.935 E.03897
G1 X116.87 Y121.439 E.03761
G1 X115.849 Y120.893 E.0363
G1 X114.794 Y120.237 E.03895
G1 X113.819 Y119.537 E.03763
G1 X112.924 Y118.802 E.03631
G1 X112.017 Y117.953 E.03895
G1 X111.198 Y117.076 E.03762
G1 X110.463 Y116.181 E.03631
G1 X109.74 Y115.171 E.03895
G1 X109.107 Y114.152 E.03761
G1 X108.561 Y113.131 E.0363
G1 X108.048 Y111.999 E.03897
G1 X107.627 Y110.875 E.03763
G1 X107.291 Y109.767 E.0363
G1 X107.009 Y108.557 E.03896
G1 X106.815 Y107.373 E.03762
G1 X106.701 Y106.221 E.0363
G1 X106.661 Y104.979 E.03896
G1 X106.701 Y103.78 E.03761
G1 X106.815 Y102.628 E.0363
G1 X107.017 Y101.402 E.03896
G1 X107.291 Y100.233 E.03765
G1 X107.627 Y99.125 E.0363
G1 X108.065 Y97.962 E.03897
G1 X108.561 Y96.87 E.03761
G1 X109.107 Y95.849 E.0363
G1 X109.763 Y94.794 E.03895
G1 X110.463 Y93.819 E.03763
G1 X111.159 Y92.971 E.0344
;WIPE_START
G1 F8640
G1 X111.197 Y92.924 E-.01396
G1 X112.047 Y92.017 E-.28702
G1 X112.924 Y91.198 E-.27707
G1 X113.667 Y90.588 E-.22195
;WIPE_END
G1 Z.6 F10800
G1 X135.77 Y90.77
G1 Z.2
G1 E.8 F2100
;TYPE:Solid infill
;WIDTH:0.423087
G1 F1200
G1 X137.548 Y92.547 E.07946
G1 X138.279 Y93.328 E.03382
M73 Q3 S11
G1 X139.013 Y94.221 E.03654
G1 X139.8 Y95.337 E.04317
G1 X134.667 Y90.205 E.22945
G1 X133.822 Y89.679 E.03146
G1 X133.355 Y89.43 E.01673
G1 X140.57 Y96.645 E.32254
G1 X140.847 Y97.162 E.01854
G1 X141.093 Y97.706 E.01887
G1 X132.291 Y88.904 E.39349
G1 X131.786 Y88.675 E.01753
G1 X131.367 Y88.517 E.01416
G1 X141.485 Y98.636 E.45234
G1 X141.789 Y99.477 E.02827
G1 X130.521 Y88.21 E.50371
G1 X129.751 Y87.977 E.02543
M73 P4 R11
M73 Q4 S11
G1 X142.025 Y100.25 E.54868
G1 X142.202 Y100.966 E.02331
G1 X129.032 Y87.796 E.58876
G1 X128.343 Y87.644 E.0223
G1 X142.358 Y101.659 E.62654
G1 X142.464 Y102.303 E.02063
G1 X127.699 Y87.537 E.66009
G1 X127.072 Y87.448 E.02002
G1 X142.551 Y102.927 E.69198
G1 X142.61 Y103.524 E.01896
G1 X126.475 Y87.389 E.72131
G1 X125.899 Y87.35 E.01825
G1 X142.649 Y104.101 E.74883
G1 X142.667 Y104.656 E.01755
M73 P5 R11
M73 Q5 S11
G1 X125.342 Y87.331 E.77451
G1 X124.802 Y87.329 E.01707
G1 X142.673 Y105.2 E.79892
G1 X142.656 Y105.721 E.01648
G1 X124.281 Y87.346 E.82145
G1 X123.764 Y87.366 E.01636
G1 X142.633 Y106.235 E.84353
G1 X142.585 Y106.725 E.01556
G1 X123.274 Y87.414 E.86329
G1 X122.785 Y87.462 E.01553
G1 X142.538 Y107.215 E.88305
G1 X142.466 Y107.681 E.01491
M73 P6 R11
M73 Q6 S11
G1 X122.319 Y87.534 E.90067
G1 X121.857 Y87.61 E.0148
G1 X142.39 Y108.142 E.9179
G1 X142.306 Y108.596 E.01459
G1 X121.405 Y87.695 E.93437
G1 X120.969 Y87.797 E.01415
G1 X142.204 Y109.032 E.9493
G1 X142.103 Y109.468 E.01415
G1 X120.533 Y87.899 E.96426
G1 X120.114 Y88.017 E.01376
M73 P7 R11
M73 Q7 S11
G1 X141.983 Y109.886 E.97765
G1 X141.858 Y110.299 E.01364
G1 X119.701 Y88.142 E.99052
G1 X119.291 Y88.269 E.01357
G1 X141.73 Y110.709 E1.00315
G1 X141.583 Y111.1 E.0132
G1 X118.9 Y88.416 E1.01406
G1 X118.509 Y88.563 E.0132
M73 P8 R11
M73 Q8 S11
G1 X141.436 Y111.49 E1.02495
G1 X141.284 Y111.876 E.01311
G1 X118.125 Y88.717 E1.03532
G1 X117.755 Y88.884 E.01283
G1 X141.117 Y112.246 E1.04439
G1 X140.949 Y112.616 E.01285
G1 X117.385 Y89.052 E1.05342
G1 X117.023 Y89.227 E.01271
G1 X140.772 Y112.976 E1.06169
G1 X140.585 Y113.327 E.01257
M73 P9 R11
M73 Q9 S11
G1 X116.673 Y89.415 E1.06898
G1 X116.322 Y89.602 E.01257
G1 X140.398 Y113.677 E1.07629
G1 X140.2 Y114.017 E.01244
G1 X115.983 Y89.8 E1.08261
G1 X115.651 Y90.006 E.01235
G1 X139.994 Y114.348 E1.08822
G1 X139.787 Y114.68 E.01237
M73 P10 R11
M73 Q10 S11
G1 X115.319 Y90.212 E1.09384
G1 X114.999 Y90.429 E.01222
G1 X139.572 Y115.002 E1.09853
G1 X139.347 Y115.315 E.01219
G1 X114.686 Y90.654 E1.10246
G1 X114.373 Y90.878 E.01217
G1 X139.123 Y115.628 E1.10644
G1 X138.887 Y115.93 E.01212
M73 P11 R10
M73 Q11 S11
G1 X114.069 Y91.112 E1.10948
G1 X113.773 Y91.354 E.01209
G1 X138.645 Y116.226 E1.1119
G1 X138.403 Y116.522 E.01209
G1 X113.478 Y91.596 E1.11429
G1 X113.193 Y91.849 E.01205
M73 Q11 S10
G1 X138.151 Y116.807 E1.11574
G1 X137.891 Y117.084 E.01201
M73 P12 R10
G1 X112.915 Y92.109 E1.11652
G1 X112.637 Y92.369 E.01203
M73 Q12 S10
G1 X137.631 Y117.362 E1.11733
G1 X137.486 Y117.516 E.00669
G1 X137.363 Y117.632 E.00534
G1 X112.369 Y92.638 E1.11735
G1 X112.109 Y92.916 E.01203
G1 X137.085 Y117.892 E1.11655
G1 X136.808 Y118.152 E.01201
G1 X111.849 Y93.193 E1.11579
G1 X111.596 Y93.478 E.01205
M73 P13 R10
M73 Q13 S10
G1 X136.521 Y118.403 E1.11427
G1 X136.226 Y118.645 E.01206
G1 X111.354 Y93.773 E1.1119
G1 X111.112 Y94.069 E.01209
G1 X135.931 Y118.888 E1.10953
G1 X135.627 Y119.122 E.01213
G1 X110.878 Y94.373 E1.1064
G1 X110.653 Y94.685 E.01216
M73 P14 R10
M73 Q14 S10
G1 X135.314 Y119.346 E1.10246
G1 X135.001 Y119.571 E.01219
G1 X110.428 Y94.998 E1.09853
G1 X110.213 Y95.32 E.01224
G1 X134.681 Y119.788 E1.09384
G1 X134.349 Y119.995 E.01237
G1 X110.006 Y95.652 E1.08825
G1 X109.8 Y95.983 E.01232
M73 P15 R10
M73 Q15 S10
G1 X134.018 Y120.201 E1.08266
G1 X133.677 Y120.397 E.01243
G1 X109.602 Y96.322 E1.07627
G1 X109.415 Y96.673 E.01257
G1 X133.327 Y120.585 E1.06898
G1 X132.977 Y120.772 E.01254
G1 X109.227 Y97.023 E1.06171
G1 X109.052 Y97.385 E.01271
M73 P16 R10
M73 Q16 S10
G1 X132.615 Y120.948 E1.05338
G1 X132.245 Y121.116 E.01285
G1 X108.884 Y97.755 E1.04435
G1 X108.716 Y98.124 E.01282
G1 X131.875 Y121.283 E1.03532
G1 X131.491 Y121.438 E.01309
G1 X108.564 Y98.51 E1.02497
G1 X108.417 Y98.901 E.0132
G1 X131.101 Y121.585 E1.01408
G1 X130.71 Y121.732 E.0132
M73 P17 R10
M73 Q17 S10
G1 X108.27 Y99.291 E1.0032
G1 X108.142 Y99.701 E.01358
G1 X130.298 Y121.857 E.99048
G1 X129.886 Y121.983 E.01362
G1 X108.017 Y100.114 E.97765
G1 X107.898 Y100.533 E.01377
G1 X129.467 Y122.101 E.96421
G1 X129.031 Y122.203 E.01415
M73 P18 R10
G1 X107.796 Y100.968 E.9493
G1 X107.694 Y101.404 E.01415
M73 Q18 S10
G1 X128.595 Y122.305 E.93437
G1 X128.143 Y122.391 E.01454
G1 X107.61 Y101.858 E.91792
G1 X107.534 Y102.319 E.01477
G1 X127.682 Y122.467 E.90071
G1 X127.214 Y122.537 E.01496
G1 X107.462 Y102.785 E.88301
G1 X107.414 Y103.274 E.01553
M73 P19 R9
G1 X126.725 Y122.585 E.86329
G1 X126.236 Y122.634 E.01554
M73 Q19 S10
G1 X107.366 Y103.764 E.84358
G1 X107.344 Y104.28 E.01633
G1 X125.719 Y122.655 E.82145
G1 X125.199 Y122.672 E.01645
G1 X107.327 Y104.8 E.79896
G1 X107.333 Y105.344 E.0172
M73 Q19 S9
G1 X124.658 Y122.669 E.77451
G1 X124.102 Y122.651 E.01758
G1 X107.351 Y105.899 E.74887
G1 X107.389 Y106.476 E.01828
M73 P20 R9
M73 Q20 S9
G1 X123.523 Y122.61 E.72127
G1 X122.928 Y122.552 E.0189
G1 X107.448 Y107.072 E.69203
G1 X107.537 Y107.698 E.01999
G1 X122.301 Y122.463 E.66004
G1 X121.657 Y122.356 E.02064
G1 X107.642 Y108.341 E.62654
G1 X107.798 Y109.034 E.02245
G1 X120.967 Y122.203 E.58872
G1 X120.251 Y122.025 E.02332
G1 X107.975 Y109.749 E.5488
G1 X108.209 Y110.521 E.0255
G1 X119.479 Y121.791 E.50382
G1 X118.633 Y121.483 E.02846
M73 P21 R9
G1 X108.516 Y111.365 E.4523
G1 X108.659 Y111.746 E.01286
M73 Q21 S9
G1 X108.907 Y112.294 E.01901
G1 X117.708 Y121.095 E.39345
G1 X117.162 Y120.847 E.01896
G1 X116.646 Y120.571 E.0185
G1 X109.429 Y113.354 E.32263
G1 X109.679 Y113.822 E.01677
G1 X110.201 Y114.664 E.03132
G1 X115.333 Y119.795 E.2294
G1 X114.221 Y119.013 E.04297
G1 X113.359 Y118.306 E.03524
G1 X112.516 Y117.517 E.0365
G1 X110.776 Y115.776 E.07781
M106 S84.15
;LAYER_CHANGE
;Z:0.4
;HEIGHT:0.2
;BEFORE_LAYER_CHANGE
G92 E0.0
;0.4


;WIPE_START
G1 F8640
