; generated by PrusaSlicer 2.7.4+MacOS-arm64 on 2025-01-07 at 19:57:50 UTC


;
;
; 

; external perimeters extrusion width = 0.45mm
; perimeters extrusion width = 0.45mm
; infill extrusion width = 0.45mm
; solid infill extrusion width = 0.45mm
; top infill extrusion width = 0.40mm
; first layer extrusion width = 0.42mm

; external perimeters extrusion width = 0.45mm
; perimeters extrusion width = 0.45mm
; infill extrusion width = 0.45mm
; solid infill extrusion width = 0.45mm
; top infill extrusion width = 0.40mm
; first layer extrusion width = 0.42mm

M73 P0 R17
M73 Q0 S17
M201 X1000 Y1000 Z200 E5000 ; sets maximum accelerations, mm/sec^2
M203 X200 Y200 Z12 E120 ; sets maximum feedrates, mm / sec
M204 S1250 T1250 ; sets acceleration (S) and retract acceleration (R), mm/sec^2
M205 X8.00 Y8.00 Z0.40 E4.50 ; sets the jerk limits, mm/sec
M205 S0 T0 ; sets the minimum extruding and travel feed rate, mm/sec

; printing object Speaker Holder v4.stl id:0 copy 0
; stop printing object Speaker Holder v4.stl id:0 copy 0
; printing object Disk v1.stl id:1 copy 0
; stop printing object Disk v1.stl id:1 copy 0

;TYPE:Custom
M862.3 P "MK3S" ; printer model check
M862.1 P0.4 ; nozzle diameter check
M115 U3.13.3 ; tell printer latest fw version
G90 ; use absolute coordinates
M83 ; extruder relative mode
M104 S215 ; set extruder temp
M140 S60 ; set bed temp
M190 S60 ; wait for bed temp
M109 S215 ; wait for extruder temp
G28 W ; home all without mesh bed level
G80 X109.734 Y96.4353 W73.1524 H17.1293 ; mesh bed levelling

G1 Z0.2 F720
G1 Y-3 F1000 ; go outside print area
G92 E0
G1 X60 E9 F1000 ; intro line
G1 X100 E12.5 F1000 ; intro line

G92 E0
M221 S95

; Don't change E values below. Excessive value can damage the printer.

M907 E538 ; set extruder motor current
G21 ; set units to millimeters
G90 ; use absolute coordinates
M83 ; use relative distances for extrusion

M900 K0.05 ; Filament gcode LA 1.5
M900 K30 ; Filament gcode LA 1.0




M107
;LAYER_CHANGE
;Z:0.2
;HEIGHT:0.2
G1 E-.8 F2100
G1 Z.6 F10800
M73 P0 R16
G1 X110.315 Y99.719
G1 Z.2
G1 E.8 F2100
M204 S1000
;TYPE:Skirt/Brim
;WIDTH:0.42
G1 F1200
G1 X111.36 Y98.842 E.04277
G1 X112.222 Y98.65 E.02769
G1 X174.329 Y96.625 E1.94836
G1 X176.118 Y96.818 E.05642
M73 P1 R16
M73 Q1 S17
G1 X177.55 Y97.27 E.04708
G1 X178.879 Y97.97 E.0471
G1 X180.061 Y98.897 E.0471
G1 X181.058 Y100.019 E.04706
G1 X181.901 Y101.43 E.05154
G1 X182.417 Y102.84 E.04708
G1 X182.672 Y104.32 E.04709
G1 X182.66 Y105.822 E.0471
G1 X182.379 Y107.297 E.04708
G1 X181.839 Y108.698 E.04708
G1 X181.058 Y109.981 E.04709
G1 X180.061 Y111.103 E.04706
G1 X178.879 Y112.03 E.0471
G1 X178.134 Y112.46 E.02697
G1 X177.216 Y112.861 E.03141
G1 X175.766 Y113.251 E.04708
G1 X174.146 Y113.375 E.05094
G1 X119.912 Y111.375 E1.70162
G1 X111.994 Y110.357 E.25031
G1 X110.748 Y109.801 E.04278
G1 X109.923 Y108 E.06211
G1 X109.923 Y101.026 E.21866
G1 X110.297 Y99.776 E.04091
;WIPE_START
G1 F8640
G1 X110.315 Y99.719 E-.0138
G1 X111.36 Y98.842 E-.31501
G1 X112.222 Y98.65 E-.20392
G1 X113.379 Y98.612 E-.26727
;WIPE_END
G1 Z.6 F10800
; printing object Disk v1.stl id:1 copy 0
G1 X169.113 Y105
G1 Z.2
G1 E.8 F2100
;TYPE:Perimeter
;WIDTH:0.419999
G1 F1200
G1 X169.197 Y104.069 E.02931
G1 X169.448 Y103.161 E.02954
G1 X169.695 Y102.607 E.01902
G1 X170.206 Y101.805 E.02982
G1 X170.606 Y101.349 E.01902
G1 X171.331 Y100.734 E.02981
G1 X171.854 Y100.411 E.01927
G1 X172.412 Y100.152 E.01929
G1 X173.325 Y99.885 E.02983
G1 X173.926 Y99.804 E.01901
G1 X174.877 Y99.818 E.02982
G1 X175.475 Y99.918 E.01901
G1 X176.38 Y100.211 E.02983
G1 X176.93 Y100.486 E.01928
G1 X177.443 Y100.825 E.01928
G1 X178.15 Y101.462 E.02984
G1 X178.54 Y101.937 E.01927
G1 X178.876 Y102.462 E.01954
G1 X179.143 Y103.016 E.01928
G1 X179.423 Y103.925 E.02982
G1 X179.474 Y104.263 E.01072
G1 X179.523 Y104.806 E.01709
G1 X179.533 Y105.148 E.01073
G1 X179.419 Y106.092 E.02981
G1 X179.256 Y106.685 E.01928
G1 X179.023 Y107.254 E.01928
G1 X178.535 Y108.07 E.02981
G1 X178.15 Y108.539 E.01903
G1 X177.443 Y109.175 E.02982
G1 X176.937 Y109.509 E.01901
G1 X176.074 Y109.909 E.02982
G1 X175.491 Y110.079 E.01904
G1 X174.549 Y110.206 E.0298
G1 X173.935 Y110.197 E.01925
G1 X173.317 Y110.114 E.01955
G1 X172.721 Y109.959 E.01931
G1 X171.847 Y109.585 E.02981
G1 X171.331 Y109.266 E.01902
G1 X170.605 Y108.651 E.02983
G1 X170.201 Y108.188 E.01927
G1 X169.85 Y107.673 E.01954
G1 X169.562 Y107.12 E.01955
G1 X169.344 Y106.537 E.01952
G1 X169.198 Y105.939 E.0193
G1 X169.119 Y105.059 E.0277
G1 X169.119 Y105.059 F10800
G1 X168.735 Y105
;TYPE:External perimeter
G1 F1200
G1 X168.825 Y104.002 E.03142
G1 X169.092 Y103.033 E.03151
G1 X169.362 Y102.428 E.02077
G1 X169.904 Y101.579 E.03158
G1 X170.34 Y101.079 E.0208
G1 X171.109 Y100.428 E.03159
G1 X171.675 Y100.078 E.02087
G1 X172.279 Y99.798 E.02087
G1 X173.246 Y99.515 E.03159
G1 X173.904 Y99.426 E.02082
G1 X174.911 Y99.442 E.03158
G1 X175.565 Y99.55 E.02078
G1 X176.523 Y99.862 E.03159
G1 X177.119 Y100.159 E.02088
G1 X177.674 Y100.526 E.02086
G1 X178.423 Y101.2 E.03159
G1 X178.846 Y101.715 E.0209
G1 X179.206 Y102.278 E.02095
G1 X179.495 Y102.878 E.02088
G1 X179.792 Y103.841 E.0316
G1 X179.847 Y104.206 E.01157
G1 X179.9 Y104.795 E.01854
G1 X179.911 Y105.165 E.01161
G1 X179.79 Y106.165 E.03158
G1 X179.613 Y106.807 E.02088
G1 X179.361 Y107.423 E.02087
G1 X178.844 Y108.288 E.0316
G1 X178.423 Y108.8 E.02078
G1 X177.674 Y109.474 E.03159
G1 X177.121 Y109.839 E.02078
G1 X176.207 Y110.263 E.03159
G1 X175.57 Y110.449 E.02081
G1 X174.571 Y110.584 E.03161
G1 X173.906 Y110.574 E.02085
G1 X173.244 Y110.484 E.02095
G1 X172.599 Y110.317 E.02089
G1 X171.673 Y109.921 E.03158
G1 X171.108 Y109.572 E.02082
G1 X170.34 Y108.921 E.03157
G1 X169.902 Y108.419 E.02089
G1 X169.525 Y107.867 E.02096
G1 X169.217 Y107.273 E.02098
G1 X168.983 Y106.648 E.02092
G1 X168.825 Y106 E.02091
G1 X168.74 Y105.059 E.02962
;WIPE_START
G1 F8640
G1 X168.735 Y105 E-.01367
G1 X168.825 Y104.002 E-.23138
G1 X169.092 Y103.033 E-.23208
G1 X169.362 Y102.428 E-.15298
G1 X169.758 Y101.808 E-.16989
;WIPE_END
G1 Z.6 F10800
G1 X176.869 Y100.583
G1 Z.2
M73 Q1 S16
G1 E.8 F2100
;TYPE:Solid infill
;WIDTH:0.421784
G1 F1200
G1 X177.948 Y101.661 E.04805
G1 X178.311 Y102.103 E.01802
G1 X178.628 Y102.6 E.01857
M73 Q2 S16
G1 X178.882 Y103.132 E.01857
G1 X176.201 Y100.451 E.11944
G1 X175.408 Y100.193 E.02627
G1 X179.121 Y103.907 E.16544
M73 P2 R16
G1 X179.232 Y104.553 E.02065
G1 X174.779 Y100.1 E.19839
G1 X174.235 Y100.091 E.01714
G1 X179.249 Y105.106 E.2234
G1 X179.195 Y105.588 E.01528
G1 X173.724 Y100.117 E.24374
G1 X173.384 Y100.163 E.01081
G1 X173.268 Y100.197 E.00381
G1 X179.134 Y106.062 E.26132
G1 X179.018 Y106.482 E.01373
G1 X172.854 Y100.318 E.27462
G1 X172.447 Y100.447 E.01345
G1 X178.873 Y106.873 E.28629
G1 X178.769 Y107.127 E.00865
G1 X178.702 Y107.238 E.00408
G1 X172.081 Y100.617 E.29498
G1 X171.741 Y100.813 E.01236
G1 X178.502 Y107.574 E.30121
G1 X178.301 Y107.909 E.01231
G1 X171.421 Y101.028 E.30654
G1 X171.131 Y101.274 E.01198
G1 X178.06 Y108.203 E.3087
G1 X177.945 Y108.343 E.00571
G1 X177.797 Y108.476 E.00627
G1 X170.841 Y101.52 E.3099
G1 X170.586 Y101.801 E.01195
G1 X177.515 Y108.729 E.30868
G1 X177.228 Y108.978 E.01197
G1 X170.352 Y102.103 E.30631
G1 X170.143 Y102.43 E.01223
G1 X176.905 Y109.191 E.30123
G1 X176.798 Y109.261 E.00403
G1 X176.553 Y109.375 E.00851
G1 X169.937 Y102.759 E.29475
G1 X169.771 Y103.129 E.01278
G1 X176.187 Y109.545 E.28584
G1 X175.974 Y109.643 E.00739
G1 X175.8 Y109.694 E.00571
G1 X169.639 Y103.532 E.2745
G1 X169.523 Y103.952 E.01373
G1 X175.379 Y109.809 E.26092
G1 X174.907 Y109.873 E.01501
G1 X169.45 Y104.415 E.24314
G1 X169.406 Y104.907 E.01556
G1 X174.421 Y109.922 E.22343
G1 X173.866 Y109.903 E.01749
G1 X169.44 Y105.477 E.19718
G1 X169.477 Y105.892 E.01313
G1 X169.529 Y106.101 E.00678
G1 X173.225 Y109.797 E.16466
G1 X172.813 Y109.69 E.01341
M73 P3 R16
M73 Q3 S16
G1 X172.41 Y109.518 E.0138
G1 X169.776 Y106.885 E.11733
G1 X169.821 Y107.004 E.00401
G1 X170.093 Y107.528 E.0186
G1 X170.425 Y108.015 E.01857
G1 X170.801 Y108.446 E.01802
G1 X171.745 Y109.389 E.04203
;WIPE_START
G1 F8640
G1 X170.801 Y108.446 E-.3081
G1 X170.425 Y108.015 E-.13207
G1 X170.093 Y107.528 E-.13609
G1 X169.821 Y107.004 E-.13632
G1 X169.776 Y106.885 E-.02938
G1 X169.954 Y107.063 E-.05804
;WIPE_END
G1 Z.6 F10800
; stop printing object Disk v1.stl id:1 copy 0
; printing object Speaker Holder v4.stl id:0 copy 0
G1 X129.228 Y107.748
G1 Z.2
G1 E.8 F2100
;TYPE:Perimeter
;WIDTH:0.419999
G1 F1200
G1 X129.213 Y108.213 E.01459
G1 X120.787 Y108.213 E.26419
G1 X120.769 Y107.636 E.0181
G1 X120.665 Y107.428 E.00729
G1 X120.478 Y107.274 E.0076
G1 X120.221 Y107.213 E.00828
G1 X113.087 Y107.213 E.22368
G1 X113.087 Y101.813 E.16931
G1 X113.925 Y101.813 E.02627
G1 X114.171 Y102.114 E.01219
G1 X114.688 Y102.683 E.02411
G1 X115.235 Y103.224 E.02412
G1 X115.81 Y103.734 E.0241
G1 X116.412 Y104.213 E.02412
G1 X117.038 Y104.659 E.0241
G1 X117.688 Y105.07 E.02411
G1 X118.359 Y105.446 E.02412
G1 X119.049 Y105.785 E.0241
G1 X119.757 Y106.086 E.02412
G1 X120.642 Y106.399 E.02943
G1 X121.215 Y106.573 E.01878
G1 X121.962 Y106.757 E.02412
G1 X122.718 Y106.9 E.02412
G1 X123.48 Y107.002 E.02411
G1 X124.246 Y107.063 E.02409
G1 X125.015 Y107.083 E.02412
G1 X125.784 Y107.062 E.02412
G1 X126.55 Y106.999 E.0241
G1 X127.312 Y106.895 E.02411
G1 X128.3 Y106.693 E.03162
G1 X128.814 Y106.565 E.01661
G1 X129.62 Y106.314 E.02647
G1 X130.271 Y106.075 E.02174
G1 X130.978 Y105.772 E.02412
G1 X132.04 Y105.222 E.0375
G1 X132.953 Y104.664 E.03355
G1 X133.613 Y104.195 E.02539
G1 X134.213 Y103.715 E.02409
G1 X134.787 Y103.203 E.02412
G1 X135.333 Y102.661 E.02412
G1 X136.096 Y101.787 E.03638
G1 X136.913 Y101.787 E.02562
G1 X136.913 Y102.341 E.01737
G1 X136.913 Y107.213 E.15276
G1 X130.442 Y107.213 E.20289
G1 X129.613 Y107.238 E.026
G1 X129.354 Y107.404 E.00965
G1 X129.231 Y107.636 E.00823
G1 X129.23 Y107.688 E.00163
G1 X129.23 Y107.688 F10800
G1 X129.59 Y107.779
;TYPE:External perimeter
G1 F1200
G1 X129.59 Y108.59 E.02543
G1 X120.41 Y108.59 E.28783
G1 X120.41 Y107.779 E.02543
G1 X120.369 Y107.662 E.00389
G1 X120.221 Y107.59 E.00516
G1 X112.71 Y107.59 E.2355
G1 X112.71 Y101.436 E.19295
G1 X114.105 Y101.436 E.04374
G1 X114.45 Y101.861 E.01716
G1 X114.953 Y102.415 E.02346
G1 X115.485 Y102.942 E.02348
G1 X116.045 Y103.439 E.02348
G1 X116.631 Y103.906 E.02349
G1 X117.24 Y104.34 E.02345
G1 X117.873 Y104.741 E.02349
G1 X118.526 Y105.107 E.02347
G1 X119.198 Y105.438 E.02349
G1 X119.886 Y105.732 E.02346
G1 X120.752 Y106.038 E.0288
G1 X121.306 Y106.207 E.01816
G1 X122.033 Y106.386 E.02348
G1 X122.768 Y106.526 E.02346
G1 X123.51 Y106.626 E.02348
G1 X124.257 Y106.687 E.0235
G1 X125.005 Y106.706 E.02346
G1 X125.754 Y106.686 E.02349
G1 X126.5 Y106.625 E.02347
G1 X127.242 Y106.525 E.02348
G1 X128.209 Y106.327 E.03095
G1 X128.704 Y106.204 E.01599
G1 X129.49 Y105.96 E.0258
G1 X130.123 Y105.728 E.02114
G1 X130.812 Y105.434 E.02349
G1 X131.843 Y104.9 E.0364
G1 X132.757 Y104.342 E.03358
G1 X133.377 Y103.9 E.02387
G1 X133.963 Y103.433 E.02349
G1 X134.522 Y102.935 E.02347
G1 X135.054 Y102.408 E.02348
G1 X135.556 Y101.853 E.02346
G1 X135.916 Y101.41 E.0179
G1 X137.29 Y101.41 E.04308
G1 X137.29 Y102.341 E.02919
G1 X137.29 Y107.59 E.16458
G1 X129.779 Y107.59 E.2355
G1 X129.637 Y107.654 E.00488
G1 X129.611 Y107.722 E.00228
;WIPE_START
G1 F8640
G1 X129.59 Y107.779 E-.01403
G1 X129.59 Y108.59 E-.18726
G1 X126.997 Y108.59 E-.59871
;WIPE_END
G1 Z.6 F10800
G1 X136.8 Y102.665
G1 Z.2
G1 E.8 F2100
;TYPE:Solid infill
;WIDTH:0.42102
G1 F1200
G1 X136.217 Y102.082 E.02592
G1 X135.967 Y102.367 E.01192
G1 X136.63 Y103.03 E.02948
G1 X136.63 Y103.564 E.01679
G1 X135.717 Y102.652 E.04057
G1 X135.462 Y102.931 E.01188
G1 X136.63 Y104.099 E.05193
G1 X136.63 Y104.634 E.01682
G1 X135.194 Y103.198 E.06385
G1 X134.923 Y103.461 E.01187
G1 X136.63 Y105.169 E.07592
G1 X136.63 Y105.703 E.01679
G1 X134.64 Y103.713 E.08848
G1 X134.355 Y103.963 E.01192
G1 X136.63 Y106.238 E.10115
G1 X136.63 Y106.773 E.01682
G1 X134.058 Y104.201 E.11436
G1 X133.76 Y104.437 E.01195
G1 X136.253 Y106.931 E.11087
G1 X135.719 Y106.931 E.01679
G1 X133.447 Y104.659 E.10102
G1 X133.135 Y104.881 E.01204
G1 X135.185 Y106.931 E.09115
G1 X134.65 Y106.932 E.01682
G1 X132.805 Y105.086 E.08205
G1 X132.473 Y105.289 E.01223
M73 P4 R16
M73 Q4 S16
G1 X134.116 Y106.932 E.07305
G1 X133.582 Y106.933 E.01679
G1 X132.139 Y105.49 E.06416
G1 X131.797 Y105.682 E.01233
G1 X133.048 Y106.933 E.05562
G1 X132.513 Y106.934 E.01682
G1 X131.439 Y105.86 E.04775
G1 X131.081 Y106.036 E.01254
G1 X131.979 Y106.934 E.03993
G1 X131.445 Y106.935 E.01679
G1 X130.706 Y106.196 E.03286
G1 X130.331 Y106.355 E.01281
G1 X130.911 Y106.935 E.02579
G1 X130.376 Y106.936 E.01682
G1 X129.939 Y106.498 E.01945
G1 X129.544 Y106.638 E.01318
G1 X129.842 Y106.936 E.01325
G1 X129.669 Y106.936 E.00544
G1 X129.393 Y107.021 E.00908
G1 X129.134 Y106.762 E.01152
G1 X128.717 Y106.881 E.01363
G1 X129.104 Y107.267 E.01718
G1 X128.957 Y107.561 E.01033
G1 X128.947 Y107.644 E.00263
G1 X128.288 Y106.986 E.02928
G1 X127.848 Y107.081 E.01415
G1 X128.697 Y107.93 E.03775
G1 X128.163 Y107.93 E.01679
G1 X127.399 Y107.166 E.03397
G1 X126.93 Y107.232 E.01489
G1 X127.628 Y107.93 E.03103
G1 X127.093 Y107.93 E.01682
G1 X126.454 Y107.291 E.02841
G1 X125.959 Y107.331 E.01561
G1 X126.559 Y107.93 E.02665
G1 X126.024 Y107.93 E.01682
G1 X125.448 Y107.354 E.02561
G1 X124.923 Y107.364 E.01651
G1 X125.489 Y107.93 E.02517
G1 X124.954 Y107.93 E.01682
G1 X124.374 Y107.35 E.02579
G1 X123.801 Y107.311 E.01806
G1 X124.42 Y107.93 E.02752
G1 X123.885 Y107.93 E.01682
G1 X123.205 Y107.251 E.03021
G1 X122.582 Y107.162 E.01979
G1 X123.35 Y107.93 E.03415
G1 X122.816 Y107.93 E.01679
G1 X121.922 Y107.037 E.03973
G1 X121.215 Y106.864 E.02288
G1 X122.281 Y107.93 E.0474
G1 X121.746 Y107.93 E.01682
G1 X120.453 Y106.636 E.05751
G1 X119.614 Y106.332 E.02806
G1 X120.213 Y106.932 E.02665
G1 X120.468 Y106.966 E.00809
G1 X120.611 Y107.024 E.00485
G1 X120.888 Y107.251 E.01126
G1 X121.043 Y107.561 E.0109
G1 X121.07 Y107.789 E.00722
G1 X121.381 Y108.1 E.01383
;WIPE_START
G1 F8640
G1 X121.07 Y107.789 E-.10156
G1 X121.043 Y107.561 E-.05301
G1 X120.888 Y107.251 E-.08003
G1 X120.611 Y107.024 E-.08269
G1 X120.468 Y106.966 E-.03563
G1 X120.213 Y106.932 E-.0594
G1 X119.614 Y106.332 E-.19576
G1 X120.395 Y106.616 E-.19192
;WIPE_END
G1 Z.6 F10800
G1 X119.848 Y107.102
G1 Z.2
G1 E.8 F2100
G1 F1200
G1 X118.65 Y105.904 E.05327
G1 X118.232 Y105.698 E.01465
G1 X117.492 Y105.28 E.02672
G1 X119.144 Y106.932 E.07345
G1 X118.609 Y106.932 E.01682
G1 X113.773 Y102.096 E.21502
G1 X113.37 Y102.096 E.01267
G1 X113.37 Y102.227 E.00412
G1 X118.074 Y106.931 E.20915
G1 X117.539 Y106.931 E.01682
G1 X113.37 Y102.762 E.18536
G1 X113.37 Y103.297 E.01682
G1 X117.004 Y106.931 E.16157
G1 X116.469 Y106.931 E.01682
G1 X113.37 Y103.832 E.13779
G1 X113.37 Y104.366 E.01679
G1 X115.934 Y106.931 E.11402
G1 X115.4 Y106.931 E.01679
G1 X113.37 Y104.901 E.09026
G1 X113.37 Y105.436 E.01682
G1 X114.865 Y106.931 E.06647
G1 X114.33 Y106.93 E.01682
G1 X113.37 Y105.97 E.04268
G1 X113.37 Y106.505 E.01682
G1 X113.965 Y107.1 E.02645
M106 S84.15
;LAYER_CHANGE
;Z:0.4
;HEIGHT:0.2
;BEFORE_LAYER_CHANGE
G92 E0.0
;0.4


;WIPE_START
G1 F8640
G1 X113.37 Y106.505 E-.19429
G1 X113.37 Y105.97 E-.12353
G1 X114.33 Y106.93 E-.31348
G1 X114.865 Y106.931 E-.12353
G1 X114.727 Y106.793 E-.04517
;WIPE_END
G1 Z.4 F10800
;AFTER_LAYER_CHANGE
;0.4
M104 S210 ; set temperature
; stop printing object Speaker Holder v4.stl id:0 copy 0
G1 Z.8
G1 X114.232 Y110.645
G1 Z.4
G1 E.8 F2100
;TYPE:Skirt/Brim
;WIDTH:0.42
G1 F3000
G1 X111.994 Y110.357 E.07075
G1 X110.748 Y109.801 E.04278
G1 X109.923 Y108 E.06211
G1 X109.923 Y101.026 E.21866
G1 X110.315 Y99.719 E.04278
G1 X111.36 Y98.842 E.04277
G1 X112.222 Y98.65 E.02769
G1 X174.329 Y96.625 E1.94836
G1 X176.118 Y96.818 E.05642
G1 X177.55 Y97.27 E.04708
G1 X178.879 Y97.97 E.0471
G1 X180.061 Y98.897 E.0471
G1 X181.058 Y100.019 E.04706
G1 X181.901 Y101.43 E.05154
G1 X182.417 Y102.84 E.04708
G1 X182.672 Y104.32 E.04709
G1 X182.66 Y105.822 E.0471
G1 X182.379 Y107.297 E.04708
G1 X181.839 Y108.698 E.04708
